; generated by Slic3r 1.37.2.1-prusa3d-win64 on 2018-12-26 at 17:22:08

; 

; external perimeters extrusion width = 0.45mm
; perimeters extrusion width = 0.45mm
; infill extrusion width = 0.45mm
; solid infill extrusion width = 0.45mm
; top infill extrusion width = 0.40mm
; first layer extrusion width = 0.42mm

M107 ; disable fan
M115 U3.4.0 ; tell printer latest fw version
M83  ; extruder relative mode
M104 S215 ; set extruder temp
M140 S60 ; set bed temp
M190 S60 ; wait for bed temp
M109 S215 ; wait for extruder temp
G28 W ; home all without mesh bed level
G80 ; mesh bed leveling
G1 Y-3.0 F1000.0 ; go outside print area
G92 E0.0
G1 X60.0 E9.0  F1000.0 ; intro line
G1 X100.0 E12.5  F1000.0 ; intro line
G92 E0.0
M221 S95
M900 K30
G21 ; set units to millimeters
G90 ; use absolute coordinates
M83 ; use relative distances for extrusion
;BEFORE_LAYER_CHANGE
G92 E0.0
;0.2


G1 E-0.80000 F2100.00000 ; retract
G1 Z0.600 F10800.000 ; lift Z
;AFTER_LAYER_CHANGE
;0.2
G1 X63.382 Y73.259 F10800.000 ; move to first skirt point
G1 Z0.200 F10800.000 ; restore layer Z
G1 E0.80000 F2100.00000 ; unretract
M204 S1000 ; adjust acceleration
G1 F1200
G1 X63.903 Y72.891 E0.02000 ; skirt
G1 X64.433 Y72.692 E0.01775 ; skirt
G1 X64.995 Y72.623 E0.01775 ; skirt
G1 X185.004 Y72.623 E3.76279 ; skirt
G1 X185.902 Y72.801 E0.02872 ; skirt
G1 X186.670 Y73.308 E0.02884 ; skirt
G1 X187.185 Y74.065 E0.02872 ; skirt
G1 X187.377 Y74.961 E0.02872 ; skirt
G1 X187.377 Y135.050 E1.88404 ; skirt
G1 X187.279 Y135.676 E0.01989 ; skirt
G1 X187.019 Y136.255 E0.01989 ; skirt
G1 X186.615 Y136.744 E0.01989 ; skirt
G1 X186.097 Y137.109 E0.01989 ; skirt
G1 X185.278 Y137.361 E0.02684 ; skirt
G1 X112.240 Y145.770 E2.30519 ; skirt
G1 X89.170 Y145.897 E0.72337 ; skirt
G1 X88.280 Y145.820 E0.02799 ; skirt
G1 X87.412 Y145.595 E0.02812 ; skirt
G1 X64.170 Y137.227 E0.77454 ; skirt
G1 X63.426 Y136.781 E0.02720 ; skirt
G1 X62.890 Y136.095 E0.02731 ; skirt
G1 X62.692 Y135.568 E0.01763 ; skirt
G1 X62.623 Y135.010 E0.01763 ; skirt
G1 X62.623 Y74.962 E1.88277 ; skirt
G1 X62.718 Y74.335 E0.01989 ; skirt
G1 X62.977 Y73.752 E0.02000 ; skirt
G1 X63.344 Y73.305 E0.01812 ; skirt
G1 F8640
G1 X63.903 Y72.891 E-0.16071 ; wipe and retract
G1 F8640
G1 X64.433 Y72.692 E-0.13074 ; wipe and retract
G1 F8640
G1 X64.995 Y72.623 E-0.13074 ; wipe and retract
G1 F8640
G1 X66.458 Y72.623 E-0.33782 ; wipe and retract
G1 E-0.04000 F2100.00000 ; retract
G1 Z0.800 F10800.000 ; lift Z
G1 X68.840 Y129.290 F10800.000 ; move to first perimeter point
G1 Z0.200 F10800.000 ; restore layer Z
G1 E0.80000 F2100.00000 ; unretract
G1 F1200
G1 X71.160 Y129.290 E0.07274 ; perimeter
G1 X71.160 Y134.710 E0.16994 ; perimeter
G1 X68.840 Y134.710 E0.07274 ; perimeter
G1 X68.840 Y129.350 E0.16806 ; perimeter
G1 X68.786 Y128.894 F10800.000 ; move inwards before travel
G1 F8640
G1 X71.160 Y129.290 E-0.53587 ; wipe and retract
G1 F8640
G1 X71.160 Y130.261 E-0.22413 ; wipe and retract
G1 E-0.04000 F2100.00000 ; retract
G1 Z0.800 F10800.000 ; lift Z
G1 X68.840 Y80.710 F10800.000 ; move to first perimeter point
G1 Z0.200 F10800.000 ; restore layer Z
G1 E0.80000 F2100.00000 ; unretract
G1 F1200
G1 X68.840 Y75.290 E0.16994 ; perimeter
G1 X71.160 Y75.290 E0.07274 ; perimeter
G1 X71.160 Y80.710 E0.16994 ; perimeter
G1 X68.900 Y80.710 E0.07086 ; perimeter
G1 X68.470 Y80.862 F10800.000 ; move inwards before travel
G1 F8640
G1 X68.864 Y77.419 E-0.76000 ; wipe and retract
G1 E-0.04000 F2100.00000 ; retract
G1 Z0.800 F10800.000 ; lift Z
G1 X178.667 Y80.710 F10800.000 ; move to first perimeter point
G1 Z0.200 F10800.000 ; restore layer Z
G1 E0.80000 F2100.00000 ; unretract
G1 F1200
G1 X178.667 Y75.290 E0.16994 ; perimeter
G1 X180.987 Y75.290 E0.07274 ; perimeter
G1 X180.987 Y80.710 E0.16994 ; perimeter
G1 X178.727 Y80.710 E0.07086 ; perimeter
G1 X178.297 Y80.862 F10800.000 ; move inwards before travel
G1 F8640
G1 X178.690 Y77.419 E-0.76000 ; wipe and retract
G1 E-0.04000 F2100.00000 ; retract
G1 Z0.800 F10800.000 ; lift Z
G1 X178.727 Y129.290 F10800.000 ; move to first perimeter point
G1 Z0.200 F10800.000 ; restore layer Z
G1 E0.80000 F2100.00000 ; unretract
G1 F1200
G1 X180.987 Y129.290 E0.07086 ; perimeter
G1 X180.987 Y134.710 E0.16994 ; perimeter
G1 X178.667 Y134.710 E0.07274 ; perimeter
G1 X178.667 Y129.290 E0.16994 ; perimeter
G1 X178.674 Y128.893 F10800.000 ; move inwards before travel
G1 F8640
G1 X180.987 Y129.290 E-0.53569 ; wipe and retract
G1 F8640
G1 X180.987 Y130.261 E-0.22431 ; wipe and retract
G1 E-0.04000 F2100.00000 ; retract
G1 Z0.800 F10800.000 ; lift Z
G1 X157.939 Y129.500 F10800.000 ; move to first perimeter point
G1 Z0.200 F10800.000 ; restore layer Z
G1 E0.80000 F2100.00000 ; unretract
G1 F1200
G1 X157.917 Y129.750 E0.00787 ; perimeter
G1 X157.853 Y129.992 E0.00787 ; perimeter
G1 X157.746 Y130.220 E0.00787 ; perimeter
G1 X157.603 Y130.425 E0.00787 ; perimeter
G1 X157.425 Y130.603 E0.00787 ; perimeter
G1 X157.220 Y130.746 E0.00787 ; perimeter
G1 X156.992 Y130.853 E0.00787 ; perimeter
G1 X156.750 Y130.917 E0.00787 ; perimeter
G1 X156.500 Y130.939 E0.00787 ; perimeter
G1 X156.250 Y130.917 E0.00787 ; perimeter
G1 X156.008 Y130.853 E0.00787 ; perimeter
G1 X155.780 Y130.746 E0.00787 ; perimeter
G1 X155.575 Y130.603 E0.00787 ; perimeter
G1 X155.403 Y130.431 E0.00760 ; perimeter
G1 X155.254 Y130.222 E0.00806 ; perimeter
G1 X155.147 Y129.992 E0.00793 ; perimeter
G1 X155.083 Y129.750 E0.00787 ; perimeter
G1 X155.061 Y129.500 E0.00787 ; perimeter
G1 X155.083 Y129.250 E0.00787 ; perimeter
G1 X155.147 Y129.008 E0.00787 ; perimeter
G1 X155.254 Y128.780 E0.00787 ; perimeter
G1 X155.397 Y128.575 E0.00787 ; perimeter
G1 X155.575 Y128.397 E0.00787 ; perimeter
G1 X155.780 Y128.254 E0.00787 ; perimeter
G1 X156.008 Y128.147 E0.00787 ; perimeter
G1 X156.250 Y128.083 E0.00787 ; perimeter
G1 X156.492 Y128.061 E0.00760 ; perimeter
G1 X156.748 Y128.082 E0.00806 ; perimeter
G1 X156.992 Y128.147 E0.00793 ; perimeter
G1 X157.220 Y128.254 E0.00787 ; perimeter
G1 X157.425 Y128.397 E0.00787 ; perimeter
G1 X157.603 Y128.575 E0.00787 ; perimeter
G1 X157.746 Y128.780 E0.00787 ; perimeter
G1 X157.849 Y129.000 E0.00760 ; perimeter
G1 X157.917 Y129.248 E0.00806 ; perimeter
G1 X157.934 Y129.440 E0.00605 ; perimeter
G1 X157.561 Y129.500 F10800.000 ; move to first perimeter point
G1 F1200
G1 X157.545 Y129.684 E0.00580 ; perimeter
G1 X157.497 Y129.863 E0.00580 ; perimeter
G1 X157.419 Y130.030 E0.00580 ; perimeter
G1 X157.313 Y130.182 E0.00580 ; perimeter
G1 X157.182 Y130.313 E0.00580 ; perimeter
G1 X157.030 Y130.419 E0.00580 ; perimeter
G1 X156.863 Y130.497 E0.00580 ; perimeter
G1 X156.684 Y130.545 E0.00580 ; perimeter
G1 X156.500 Y130.561 E0.00580 ; perimeter
G1 X156.316 Y130.545 E0.00580 ; perimeter
G1 X156.137 Y130.497 E0.00580 ; perimeter
G1 X155.970 Y130.419 E0.00580 ; perimeter
G1 X155.818 Y130.313 E0.00580 ; perimeter
G1 X155.692 Y130.187 E0.00557 ; perimeter
G1 X155.582 Y130.031 E0.00599 ; perimeter
G1 X155.503 Y129.863 E0.00582 ; perimeter
G1 X155.455 Y129.684 E0.00580 ; perimeter
G1 X155.439 Y129.500 E0.00580 ; perimeter
G1 X155.455 Y129.316 E0.00580 ; perimeter
G1 X155.503 Y129.137 E0.00580 ; perimeter
G1 X155.581 Y128.970 E0.00580 ; perimeter
G1 X155.687 Y128.818 E0.00580 ; perimeter
G1 X155.818 Y128.687 E0.00580 ; perimeter
G1 X155.970 Y128.581 E0.00580 ; perimeter
G1 X156.137 Y128.503 E0.00580 ; perimeter
G1 X156.316 Y128.455 E0.00580 ; perimeter
G1 X156.493 Y128.440 E0.00557 ; perimeter
G1 X156.683 Y128.455 E0.00599 ; perimeter
G1 X156.863 Y128.503 E0.00582 ; perimeter
G1 X157.030 Y128.581 E0.00580 ; perimeter
G1 X157.182 Y128.687 E0.00580 ; perimeter
G1 X157.313 Y128.818 E0.00580 ; perimeter
G1 X157.419 Y128.970 E0.00580 ; perimeter
G1 X157.494 Y129.131 E0.00558 ; perimeter
G1 X157.545 Y129.315 E0.00599 ; perimeter
G1 X157.556 Y129.440 E0.00394 ; perimeter
G1 X157.721 Y129.592 F10800.000 ; move inwards before travel
G1 F8640
G1 X157.545 Y129.684 E-0.05639 ; wipe and retract
G1 F8640
G1 X157.497 Y129.863 E-0.04270 ; wipe and retract
G1 F8640
G1 X157.419 Y130.030 E-0.04270 ; wipe and retract
G1 F8640
G1 X157.313 Y130.182 E-0.04270 ; wipe and retract
G1 F8640
G1 X157.182 Y130.313 E-0.04270 ; wipe and retract
G1 F8640
G1 X157.030 Y130.419 E-0.04270 ; wipe and retract
G1 F8640
G1 X156.863 Y130.497 E-0.04270 ; wipe and retract
G1 F8640
G1 X156.684 Y130.545 E-0.04270 ; wipe and retract
G1 F8640
G1 X156.500 Y130.561 E-0.04270 ; wipe and retract
G1 F8640
G1 X156.316 Y130.545 E-0.04270 ; wipe and retract
G1 F8640
G1 X156.137 Y130.497 E-0.04269 ; wipe and retract
G1 F8640
G1 X155.970 Y130.419 E-0.04270 ; wipe and retract
G1 F8640
G1 X155.818 Y130.313 E-0.04270 ; wipe and retract
G1 F8640
G1 X155.692 Y130.187 E-0.04106 ; wipe and retract
G1 F8640
G1 X155.582 Y130.031 E-0.04414 ; wipe and retract
G1 F8640
G1 X155.503 Y129.863 E-0.04287 ; wipe and retract
G1 F8640
G1 X155.455 Y129.684 E-0.04270 ; wipe and retract
G1 F8640
G1 X155.448 Y129.596 E-0.02049 ; wipe and retract
G1 E-0.04000 F2100.00000 ; retract
G1 Z0.800 F10800.000 ; lift Z
G1 X163.603 Y129.203 F10800.000 ; move to first perimeter point
G1 Z0.200 F10800.000 ; restore layer Z
G1 E0.80000 F2100.00000 ; unretract
G1 F1200
G1 X163.670 Y128.825 E0.01203 ; perimeter
G1 X163.860 Y128.495 E0.01194 ; perimeter
G1 X164.132 Y128.268 E0.01111 ; perimeter
G1 X164.350 Y128.166 E0.00755 ; perimeter
G1 X164.690 Y128.105 E0.01082 ; perimeter
G1 X165.072 Y128.169 E0.01217 ; perimeter
G1 X165.382 Y128.347 E0.01120 ; perimeter
G1 X165.552 Y128.517 E0.00755 ; perimeter
G1 X165.726 Y128.816 E0.01082 ; perimeter
G1 X165.797 Y129.197 E0.01217 ; perimeter
G1 X165.730 Y129.575 E0.01202 ; perimeter
G1 X165.540 Y129.905 E0.01194 ; perimeter
G1 X165.248 Y130.149 E0.01194 ; perimeter
G1 X164.915 Y130.271 E0.01111 ; perimeter
G1 X164.674 Y130.292 E0.00758 ; perimeter
G1 X164.325 Y130.230 E0.01111 ; perimeter
G1 X164.018 Y130.053 E0.01111 ; perimeter
G1 X163.848 Y129.883 E0.00755 ; perimeter
G1 X163.674 Y129.584 E0.01082 ; perimeter
G1 X163.614 Y129.262 E0.01029 ; perimeter
G1 X163.987 Y129.201 F10800.000 ; move to first perimeter point
G1 F1200
G1 X164.030 Y128.956 E0.00780 ; perimeter
G1 X164.154 Y128.742 E0.00777 ; perimeter
G1 X164.336 Y128.588 E0.00747 ; perimeter
G1 X164.465 Y128.528 E0.00445 ; perimeter
G1 X164.692 Y128.487 E0.00724 ; perimeter
G1 X164.943 Y128.529 E0.00798 ; perimeter
G1 X165.150 Y128.649 E0.00750 ; perimeter
G1 X165.251 Y128.749 E0.00446 ; perimeter
G1 X165.367 Y128.949 E0.00724 ; perimeter
G1 X165.413 Y129.199 E0.00798 ; perimeter
G1 X165.370 Y129.444 E0.00780 ; perimeter
G1 X165.246 Y129.658 E0.00777 ; perimeter
G1 X165.057 Y129.818 E0.00777 ; perimeter
G1 X164.833 Y129.899 E0.00747 ; perimeter
G1 X164.691 Y129.912 E0.00447 ; perimeter
G1 X164.456 Y129.870 E0.00747 ; perimeter
G1 X164.250 Y129.751 E0.00747 ; perimeter
G1 X164.149 Y129.651 E0.00446 ; perimeter
G1 X164.033 Y129.451 E0.00724 ; perimeter
G1 X163.998 Y129.260 E0.00610 ; perimeter
G1 X163.771 Y129.076 F10800.000 ; move inwards before travel
G1 F8640
G1 X164.030 Y128.956 E-0.07057 ; wipe and retract
G1 F8640
G1 X164.154 Y128.742 E-0.05720 ; wipe and retract
G1 F8640
G1 X164.336 Y128.588 E-0.05503 ; wipe and retract
G1 F8640
G1 X164.465 Y128.528 E-0.03281 ; wipe and retract
G1 F8640
G1 X164.692 Y128.487 E-0.05329 ; wipe and retract
G1 F8640
G1 X164.943 Y128.529 E-0.05874 ; wipe and retract
G1 F8640
G1 X165.150 Y128.649 E-0.05526 ; wipe and retract
G1 F8640
G1 X165.251 Y128.749 E-0.03281 ; wipe and retract
G1 F8640
G1 X165.367 Y128.949 E-0.05329 ; wipe and retract
G1 F8640
G1 X165.413 Y129.199 E-0.05874 ; wipe and retract
G1 F8640
G1 X165.370 Y129.444 E-0.05743 ; wipe and retract
G1 F8640
G1 X165.246 Y129.658 E-0.05720 ; wipe and retract
G1 F8640
G1 X165.057 Y129.818 E-0.05720 ; wipe and retract
G1 F8640
G1 X164.833 Y129.899 E-0.05503 ; wipe and retract
G1 F8640
G1 X164.809 Y129.901 E-0.00540 ; wipe and retract
G1 E-0.04000 F2100.00000 ; retract
G1 Z0.800 F10800.000 ; lift Z
G1 X166.001 Y81.996 F10800.000 ; move to first perimeter point
G1 Z0.200 F10800.000 ; restore layer Z
G1 E0.80000 F2100.00000 ; unretract
G1 F1200
G1 X165.662 Y81.937 E0.01080 ; perimeter
G1 X165.435 Y81.835 E0.00781 ; perimeter
G1 X165.160 Y81.605 E0.01123 ; perimeter
G1 X164.970 Y81.275 E0.01194 ; perimeter
G1 X164.904 Y80.900 E0.01194 ; perimeter
G1 X164.970 Y80.525 E0.01194 ; perimeter
G1 X165.160 Y80.195 E0.01194 ; perimeter
G1 X165.432 Y79.968 E0.01111 ; perimeter
G1 X165.650 Y79.866 E0.00755 ; perimeter
G1 X165.990 Y79.805 E0.01082 ; perimeter
G1 X166.372 Y79.869 E0.01217 ; perimeter
G1 X166.682 Y80.047 E0.01120 ; perimeter
G1 X166.852 Y80.217 E0.00755 ; perimeter
G1 X167.026 Y80.516 E0.01082 ; perimeter
G1 X167.097 Y80.897 E0.01217 ; perimeter
G1 X167.035 Y81.249 E0.01120 ; perimeter
G1 X166.933 Y81.467 E0.00755 ; perimeter
G1 X166.712 Y81.732 E0.01082 ; perimeter
G1 X166.378 Y81.930 E0.01217 ; perimeter
G1 X166.060 Y81.986 E0.01011 ; perimeter
G1 X165.773 Y81.574 F10800.000 ; move to first perimeter point
G1 F1200
G1 X165.637 Y81.512 E0.00468 ; perimeter
G1 X165.454 Y81.358 E0.00751 ; perimeter
G1 X165.330 Y81.144 E0.00777 ; perimeter
G1 X165.287 Y80.900 E0.00777 ; perimeter
G1 X165.330 Y80.656 E0.00777 ; perimeter
G1 X165.454 Y80.442 E0.00777 ; perimeter
G1 X165.636 Y80.288 E0.00747 ; perimeter
G1 X165.765 Y80.228 E0.00446 ; perimeter
G1 X165.992 Y80.187 E0.00724 ; perimeter
G1 X166.243 Y80.229 E0.00798 ; perimeter
G1 X166.450 Y80.349 E0.00750 ; perimeter
G1 X166.551 Y80.449 E0.00445 ; perimeter
G1 X166.667 Y80.649 E0.00724 ; perimeter
G1 X166.713 Y80.899 E0.00798 ; perimeter
G1 X166.672 Y81.135 E0.00750 ; perimeter
G1 X166.612 Y81.263 E0.00445 ; perimeter
G1 X166.464 Y81.441 E0.00724 ; perimeter
G1 X166.245 Y81.570 E0.00798 ; perimeter
G1 X166.000 Y81.613 E0.00779 ; perimeter
G1 X165.832 Y81.584 E0.00535 ; perimeter
G1 X165.666 Y81.678 F10800.000 ; move inwards before travel
G1 F8640
G1 X165.637 Y81.512 E-0.04800 ; wipe and retract
G1 F8640
G1 X165.454 Y81.358 E-0.05533 ; wipe and retract
G1 F8640
G1 X165.330 Y81.144 E-0.05719 ; wipe and retract
G1 F8640
G1 X165.287 Y80.900 E-0.05720 ; wipe and retract
G1 F8640
G1 X165.330 Y80.656 E-0.05720 ; wipe and retract
G1 F8640
G1 X165.454 Y80.442 E-0.05719 ; wipe and retract
G1 F8640
G1 X165.636 Y80.288 E-0.05503 ; wipe and retract
G1 F8640
G1 X165.765 Y80.228 E-0.03281 ; wipe and retract
G1 F8640
G1 X165.992 Y80.187 E-0.05329 ; wipe and retract
G1 F8640
G1 X166.243 Y80.229 E-0.05874 ; wipe and retract
G1 F8640
G1 X166.450 Y80.349 E-0.05527 ; wipe and retract
G1 F8640
G1 X166.551 Y80.449 E-0.03281 ; wipe and retract
G1 F8640
G1 X166.667 Y80.649 E-0.05329 ; wipe and retract
G1 F8640
G1 X166.713 Y80.899 E-0.05874 ; wipe and retract
G1 F8640
G1 X166.692 Y81.018 E-0.02791 ; wipe and retract
G1 E-0.04000 F2100.00000 ; retract
G1 Z0.800 F10800.000 ; lift Z
G1 X157.917 Y80.750 F10800.000 ; move to first perimeter point
G1 Z0.200 F10800.000 ; restore layer Z
G1 E0.80000 F2100.00000 ; unretract
G1 F1200
G1 X157.853 Y80.992 E0.00787 ; perimeter
G1 X157.746 Y81.220 E0.00787 ; perimeter
G1 X157.603 Y81.425 E0.00787 ; perimeter
G1 X157.425 Y81.603 E0.00787 ; perimeter
G1 X157.220 Y81.746 E0.00787 ; perimeter
G1 X156.992 Y81.853 E0.00787 ; perimeter
G1 X156.750 Y81.917 E0.00787 ; perimeter
G1 X156.500 Y81.939 E0.00787 ; perimeter
G1 X156.250 Y81.917 E0.00787 ; perimeter
G1 X156.008 Y81.853 E0.00787 ; perimeter
G1 X155.780 Y81.746 E0.00787 ; perimeter
G1 X155.575 Y81.603 E0.00787 ; perimeter
G1 X155.403 Y81.431 E0.00760 ; perimeter
G1 X155.254 Y81.222 E0.00806 ; perimeter
G1 X155.147 Y80.992 E0.00793 ; perimeter
G1 X155.083 Y80.750 E0.00787 ; perimeter
G1 X155.061 Y80.500 E0.00787 ; perimeter
G1 X155.083 Y80.250 E0.00787 ; perimeter
G1 X155.147 Y80.008 E0.00787 ; perimeter
G1 X155.254 Y79.780 E0.00787 ; perimeter
G1 X155.397 Y79.575 E0.00787 ; perimeter
G1 X155.575 Y79.397 E0.00787 ; perimeter
G1 X155.780 Y79.254 E0.00787 ; perimeter
G1 X156.008 Y79.147 E0.00787 ; perimeter
G1 X156.250 Y79.083 E0.00787 ; perimeter
G1 X156.492 Y79.061 E0.00760 ; perimeter
G1 X156.748 Y79.082 E0.00806 ; perimeter
