; generated by Slic3r Prusa Edition 1.41.2+win64 on 2019-01-03 at 23:51:48

; 

; external perimeters extrusion width = 0.45mm
; perimeters extrusion width = 0.45mm
; infill extrusion width = 0.45mm
; solid infill extrusion width = 0.45mm
; top infill extrusion width = 0.40mm
; first layer extrusion width = 0.42mm

M73 P0 R48
M73 Q0 S49
M201 X1000 Y1000 Z1000 E5000 ; sets maximum accelerations, mm/sec^2
M203 X200 Y200 Z12 E120 ; sets maximum feedrates, mm/sec
M204 P1250 R1250 T1250 ; sets acceleration (P, T) and retract acceleration (R), mm/sec^2
M205 X8.00 Y8.00 Z0.40 E1.50 ; sets the jerk limits, mm/sec
M205 S0 T0 ; sets the minimum extruding and travel feed rate, mm/sec
M107
M115 U3.5.0 ; tell printer latest fw version
M83  ; extruder relative mode
M104 S215 ; set extruder temp
M140 S60 ; set bed temp
M190 S60 ; wait for bed temp
M109 S215 ; wait for extruder temp
G28 W ; home all without mesh bed level
G80 ; mesh bed leveling
G1 Y-3.0 F1000.0 ; go outside print area
G92 E0.0
G1 X60.0 E9.0  F1000.0 ; intro line
M73 Q0 S49
M73 P0 R48
G1 X100.0 E12.5  F1000.0 ; intro line
G92 E0.0
M221 S95
M900 K30; Filament gcode
G21 ; set units to millimeters
G90 ; use absolute coordinates
M83 ; use relative distances for extrusion
;BEFORE_LAYER_CHANGE
G92 E0.0
;0.2


G1 E-0.80000 F2100.00000
G1 Z0.600 F10800.000
;AFTER_LAYER_CHANGE
;0.2
G1 X63.545 Y76.543
G1 Z0.200
G1 E0.80000 F2100.00000
M204 S1000
G1 F1200
G1 X64.044 Y76.209 E0.01885
G1 X64.566 Y76.033 E0.01726
G1 X68.483 Y75.312 E0.12490
G1 X181.504 Y75.311 E3.54367
G1 X185.435 Y76.040 E0.12536
G1 X185.943 Y76.210 E0.01680
G1 X186.423 Y76.522 E0.01794
G1 X186.805 Y76.948 E0.01794
G1 X187.064 Y77.458 E0.01794
G1 X187.182 Y78.018 E0.01794
G1 X187.188 Y131.862 E1.68826
G1 X187.094 Y132.452 E0.01873
G1 X186.843 Y132.995 E0.01873
G1 X186.455 Y133.449 E0.01873
G1 X185.956 Y133.784 E0.01885
G1 X185.438 Y133.959 E0.01714
G1 X181.517 Y134.688 E0.12503
G1 X68.482 Y134.688 E3.54415
G1 X64.273 Y133.879 E0.13438
G1 X63.544 Y133.449 E0.02653
G1 X63.032 Y132.771 E0.02664
G1 X62.868 Y132.311 E0.01532
G1 X62.811 Y131.825 E0.01532
G1 X62.812 Y78.138 E1.68334
G1 X62.904 Y77.547 E0.01873
G1 X63.155 Y77.001 E0.01885
G1 X63.506 Y76.589 E0.01697
; PURGING FINISHED
G1 F8640
G1 X64.044 Y76.209 E-0.15218
G1 X64.566 Y76.033 E-0.12709
G1 X66.613 Y75.656 E-0.48072
G1 E-0.04000 F2100.00000
G1 Z0.800 F10800.000
G1 X115.541 Y86.595
G1 Z0.200
G1 E0.80000 F2100.00000
G1 F1200
G1 X115.636 Y86.200 E0.01274
G1 X115.791 Y85.825 E0.01274
G1 X116.004 Y85.478 E0.01274
G1 X116.267 Y85.169 E0.01274
G1 X116.576 Y84.906 E0.01274
G1 X116.923 Y84.693 E0.01274
G1 X117.298 Y84.538 E0.01274
G1 X117.693 Y84.443 E0.01274
G1 X118.075 Y84.413 E0.01201
G1 X174.121 Y84.413 E1.75729
G1 X174.503 Y84.443 E0.01201
G1 X174.898 Y84.538 E0.01274
G1 X175.273 Y84.693 E0.01274
G1 X175.621 Y84.906 E0.01277
G1 X175.934 Y85.176 E0.01298
G1 X176.192 Y85.478 E0.01246
G1 X176.405 Y85.826 E0.01277
G1 X176.562 Y86.209 E0.01298
G1 X176.655 Y86.595 E0.01246
G1 X176.685 Y86.977 E0.01201
G1 X176.685 Y123.023 E1.13020
G1 X176.655 Y123.405 E0.01201
G1 X176.560 Y123.800 E0.01274
G1 X176.405 Y124.175 E0.01274
G1 X176.192 Y124.522 E0.01274
G1 X175.929 Y124.831 E0.01274
G1 X175.620 Y125.094 E0.01274
G1 X175.272 Y125.307 E0.01277
G1 X174.889 Y125.464 E0.01298
G1 X174.503 Y125.557 E0.01246
G1 X174.121 Y125.587 E0.01201
G1 X118.075 Y125.587 E1.75729
G1 X117.693 Y125.557 E0.01201
G1 X117.298 Y125.462 E0.01274
G1 X116.923 Y125.307 E0.01274
G1 X116.576 Y125.094 E0.01274
G1 X116.267 Y124.831 E0.01274
G1 X116.004 Y124.522 E0.01274
G1 X115.791 Y124.175 E0.01274
G1 X115.636 Y123.800 E0.01274
G1 X115.541 Y123.405 E0.01274
G1 X115.511 Y123.023 E0.01201
G1 X115.511 Y86.977 E1.13020
G1 X115.536 Y86.655 E0.01013
G1 X115.912 Y86.684 F10800.000
G1 F1200
G1 X115.996 Y86.317 E0.01182
G1 X116.128 Y85.996 E0.01088
G1 X116.310 Y85.701 E0.01088
G1 X116.535 Y85.437 E0.01088
G1 X116.799 Y85.212 E0.01088
G1 X117.094 Y85.030 E0.01088
G1 X117.415 Y84.898 E0.01088
G1 X117.752 Y84.817 E0.01088
G1 X118.090 Y84.790 E0.01062
G1 X174.106 Y84.790 E1.75636
G1 X174.444 Y84.817 E0.01062
G1 X174.781 Y84.898 E0.01088
G1 X175.102 Y85.030 E0.01088
G1 X175.398 Y85.212 E0.01089
G1 X175.667 Y85.443 E0.01112
G1 X175.886 Y85.701 E0.01062
G1 X176.068 Y85.997 E0.01089
G1 X176.202 Y86.325 E0.01112
G1 X176.281 Y86.654 E0.01062
G1 X176.308 Y86.992 E0.01062
G1 X176.308 Y123.008 E1.12927
G1 X176.281 Y123.346 E0.01062
G1 X176.200 Y123.683 E0.01088
G1 X176.068 Y124.004 E0.01088
G1 X175.886 Y124.299 E0.01088
G1 X175.661 Y124.563 E0.01088
G1 X175.397 Y124.788 E0.01088
G1 X175.101 Y124.970 E0.01089
G1 X174.773 Y125.104 E0.01112
G1 X174.444 Y125.183 E0.01062
G1 X174.106 Y125.210 E0.01062
G1 X118.090 Y125.210 E1.75636
G1 X117.752 Y125.183 E0.01062
G1 X117.415 Y125.102 E0.01088
G1 X117.094 Y124.970 E0.01088
G1 X116.799 Y124.788 E0.01088
G1 X116.535 Y124.563 E0.01088
G1 X116.310 Y124.299 E0.01088
G1 X116.128 Y124.004 E0.01088
G1 X115.996 Y123.683 E0.01088
G1 X115.915 Y123.346 E0.01088
G1 X115.888 Y123.008 E0.01062
G1 X115.888 Y86.992 E1.12927
G1 X115.908 Y86.744 E0.00778
G1 X115.617 Y86.450 F10800.000
G1 F8640
G1 X115.996 Y86.317 E-0.10075
G1 X116.128 Y85.996 E-0.08010
G1 X116.310 Y85.701 E-0.08010
G1 X116.535 Y85.437 E-0.08010
G1 X116.799 Y85.212 E-0.08010
G1 X117.094 Y85.030 E-0.08010
G1 X117.415 Y84.898 E-0.08010
G1 X117.752 Y84.817 E-0.08010
G1 X118.090 Y84.790 E-0.07819
G1 X118.178 Y84.790 E-0.02037
G1 E-0.04000 F2100.00000
G1 Z0.800 F10800.000
G1 X73.963 Y82.587
G1 Z0.200
G1 E0.80000 F2100.00000
G1 F1200
G1 X77.037 Y82.587 E0.09639
G1 X77.037 Y78.087 E0.14109
G1 X172.963 Y78.087 E3.00769
G1 X172.963 Y82.587 E0.14109
G1 X176.037 Y82.587 E0.09639
G1 X176.037 Y78.087 E0.14109
G1 X180.913 Y78.087 E0.15288
G1 X180.913 Y79.462 E0.04311
G1 X184.413 Y79.473 E0.10974
G1 X184.413 Y79.522 E0.00151
G1 X180.913 Y79.539 E0.10974
G1 X180.913 Y130.461 E1.59663
G1 X184.413 Y130.478 E0.10974
G1 X184.413 Y130.527 E0.00151
G1 X180.913 Y130.538 E0.10974
G1 X180.913 Y131.913 E0.04311
G1 X176.037 Y131.913 E0.15288
G1 X176.037 Y127.413 E0.14109
G1 X172.963 Y127.413 E0.09639
G1 X172.963 Y131.913 E0.14109
G1 X77.037 Y131.913 E3.00769
G1 X77.037 Y127.413 E0.14109
G1 X73.963 Y127.413 E0.09639
G1 X73.963 Y131.913 E0.14109
G1 X69.087 Y131.913 E0.15288
G1 X69.087 Y130.538 E0.04311
G1 X65.587 Y130.527 E0.10974
G1 X65.587 Y130.478 E0.00151
G1 X69.087 Y130.461 E0.10974
G1 X69.087 Y125.587 E0.15282
M73 Q2 S48
G1 X106.523 Y125.587 E1.17378
M73 P2 R47
G1 X106.905 Y125.557 E0.01201
G1 X107.300 Y125.462 E0.01274
G1 X107.675 Y125.307 E0.01274
G1 X108.022 Y125.094 E0.01274
G1 X108.324 Y124.836 E0.01246
G1 X108.594 Y124.523 E0.01298
G1 X108.807 Y124.175 E0.01277
G1 X108.962 Y123.800 E0.01274
G1 X109.057 Y123.405 E0.01274
G1 X109.087 Y123.023 E0.01201
G1 X109.087 Y86.977 E1.13020
G1 X109.057 Y86.595 E0.01201
G1 X108.962 Y86.200 E0.01274
G1 X108.807 Y85.825 E0.01274
G1 X108.594 Y85.478 E0.01274
G1 X108.331 Y85.169 E0.01274
G1 X108.029 Y84.911 E0.01246
G1 X107.676 Y84.694 E0.01298
G1 X107.300 Y84.538 E0.01277
G1 X106.905 Y84.443 E0.01274
G1 X106.523 Y84.413 E0.01201
G1 X69.087 Y84.413 E1.17378
G1 X69.087 Y79.539 E0.15281
G1 X65.587 Y79.520 E0.10974
G1 X65.587 Y79.480 E0.00127
G1 X69.087 Y79.461 E0.10974
G1 X69.087 Y78.087 E0.04307
G1 X73.963 Y78.087 E0.15288
G1 X73.963 Y82.527 E0.13921
G1 X74.340 Y82.210 F10800.000
G1 F1200
G1 X76.660 Y82.210 E0.07274
G1 X76.660 Y77.710 E0.14109
G1 X173.340 Y77.710 E3.03133
G1 X173.340 Y82.210 E0.14109
G1 X175.660 Y82.210 E0.07274
G1 X175.660 Y77.710 E0.14109
G1 X181.290 Y77.710 E0.17652
G1 X181.290 Y79.086 E0.04315
G1 X184.790 Y79.097 E0.10974
G1 X184.790 Y79.897 E0.02506
G1 X181.290 Y79.914 E0.10974
G1 X181.290 Y130.086 E1.57310
G1 X184.790 Y130.103 E0.10974
G1 X184.790 Y130.903 E0.02506
G1 X181.290 Y130.914 E0.10974
G1 X181.290 Y132.290 E0.04315
G1 X175.660 Y132.290 E0.17652
G1 X175.660 Y127.790 E0.14109
G1 X173.340 Y127.790 E0.07274
G1 X173.340 Y132.290 E0.14109
G1 X76.660 Y132.290 E3.03133
G1 X76.660 Y127.790 E0.14109
G1 X74.340 Y127.790 E0.07274
G1 X74.340 Y132.290 E0.14109
G1 X68.710 Y132.290 E0.17652
G1 X68.710 Y130.914 E0.04315
G1 X65.210 Y130.903 E0.10974
G1 X65.210 Y130.103 E0.02506
G1 X68.710 Y130.086 E0.10974
G1 X68.710 Y125.210 E0.15288
G1 X106.508 Y125.210 E1.18514
G1 X106.846 Y125.183 E0.01062
G1 X107.183 Y125.102 E0.01088
G1 X107.504 Y124.970 E0.01088
G1 X107.799 Y124.788 E0.01088
G1 X108.057 Y124.569 E0.01062
G1 X108.288 Y124.300 E0.01112
G1 X108.470 Y124.004 E0.01089
G1 X108.602 Y123.683 E0.01088
G1 X108.683 Y123.346 E0.01088
G1 X108.710 Y123.008 E0.01062
G1 X108.710 Y86.992 E1.12927
G1 X108.683 Y86.654 E0.01062
G1 X108.602 Y86.317 E0.01088
G1 X108.470 Y85.996 E0.01088
G1 X108.288 Y85.701 E0.01088
G1 X108.063 Y85.437 E0.01088
G1 X107.806 Y85.217 E0.01062
G1 X107.504 Y85.030 E0.01112
G1 X107.183 Y84.898 E0.01089
G1 X106.846 Y84.817 E0.01088
G1 X106.508 Y84.790 E0.01062
G1 X68.710 Y84.790 E1.18514
G1 X68.710 Y79.914 E0.15287
G1 X65.210 Y79.895 E0.10974
G1 X65.210 Y79.105 E0.02478
G1 X68.710 Y79.086 E0.10974
G1 X68.710 Y77.710 E0.04313
G1 X74.340 Y77.710 E0.17652
G1 X74.340 Y82.150 E0.13921
G1 X74.458 Y82.592 F10800.000
G1 X74.352 Y82.700
G1 F1200
G1 X75.782 Y84.130 E0.06360
G1 X76.317 Y84.130 E0.01682
G1 X75.057 Y82.870 E0.05605
G1 X75.592 Y82.870 E0.01682
G1 X76.852 Y84.130 E0.05605
G1 X77.387 Y84.130 E0.01682
G1 X76.127 Y82.870 E0.05605
G1 X76.661 Y82.870 E0.01682
G1 X77.922 Y84.130 E0.05605
G1 X78.457 Y84.130 E0.01682
G1 X77.196 Y82.870 E0.05605
G1 X77.320 Y82.870 E0.00389
G1 X77.320 Y82.459 E0.01294
G1 X78.991 Y84.130 E0.07434
G1 X79.526 Y84.130 E0.01682
G1 X77.320 Y81.924 E0.09813
G1 X77.320 Y81.389 E0.01682
G1 X80.061 Y84.130 E0.12192
G1 X80.596 Y84.130 E0.01682
G1 X77.320 Y80.854 E0.14571
G1 X77.320 Y80.319 E0.01682
G1 X81.131 Y84.130 E0.16949
G1 X81.666 Y84.130 E0.01682
G1 X77.320 Y79.784 E0.19328
G1 X77.320 Y79.249 E0.01682
G1 X82.201 Y84.130 E0.21707
G1 X82.736 Y84.130 E0.01682
G1 X77.320 Y78.714 E0.24086
G1 X77.320 Y78.370 E0.01084
G1 X77.510 Y78.370 E0.00598
G1 X83.270 Y84.130 E0.25618
G1 X83.805 Y84.130 E0.01682
G1 X78.045 Y78.370 E0.25618
G1 X78.580 Y78.370 E0.01682
G1 X84.340 Y84.130 E0.25618
G1 X84.875 Y84.130 E0.01682
G1 X79.115 Y78.370 E0.25618
G1 X79.650 Y78.370 E0.01682
G1 X85.410 Y84.130 E0.25618
G1 X85.945 Y84.130 E0.01682
G1 X80.184 Y78.370 E0.25618
G1 X80.719 Y78.370 E0.01682
G1 X86.480 Y84.130 E0.25618
G1 X87.014 Y84.130 E0.01682
G1 X81.254 Y78.370 E0.25618
G1 X81.789 Y78.370 E0.01682
G1 X87.549 Y84.130 E0.25618
G1 X88.084 Y84.130 E0.01682
G1 X82.324 Y78.370 E0.25618
G1 X82.859 Y78.370 E0.01682
G1 X88.619 Y84.130 E0.25618
G1 X89.154 Y84.130 E0.01682
G1 X83.394 Y78.370 E0.25618
G1 X83.929 Y78.370 E0.01682
G1 X89.689 Y84.130 E0.25618
G1 X90.224 Y84.130 E0.01682
G1 X84.463 Y78.370 E0.25618
G1 X84.998 Y78.370 E0.01682
G1 X90.759 Y84.130 E0.25618
G1 X91.293 Y84.130 E0.01682
G1 X85.533 Y78.370 E0.25618
G1 X86.068 Y78.370 E0.01682
G1 X91.828 Y84.130 E0.25618
G1 X92.363 Y84.130 E0.01682
G1 X86.603 Y78.370 E0.25618
G1 X87.138 Y78.370 E0.01682
G1 X92.898 Y84.130 E0.25618
G1 X93.433 Y84.130 E0.01682
G1 X87.673 Y78.370 E0.25618
G1 X88.207 Y78.370 E0.01682
G1 X93.968 Y84.130 E0.25618
G1 X94.503 Y84.130 E0.01682
G1 X88.742 Y78.370 E0.25618
G1 X89.277 Y78.370 E0.01682
G1 X95.037 Y84.130 E0.25618
G1 X95.572 Y84.130 E0.01682
G1 X89.812 Y78.370 E0.25618
G1 X90.347 Y78.370 E0.01682
G1 X96.107 Y84.130 E0.25618
G1 X96.642 Y84.130 E0.01682
G1 X90.882 Y78.370 E0.25618
G1 X91.417 Y78.370 E0.01682
G1 X97.177 Y84.130 E0.25618
G1 X97.712 Y84.130 E0.01682
G1 X91.952 Y78.370 E0.25618
G1 X92.486 Y78.370 E0.01682
G1 X98.247 Y84.130 E0.25618
G1 X98.782 Y84.130 E0.01682
G1 X93.021 Y78.370 E0.25618
G1 X93.556 Y78.370 E0.01682
G1 X99.316 Y84.130 E0.25618
G1 X99.851 Y84.130 E0.01682
G1 X94.091 Y78.370 E0.25618
G1 X94.626 Y78.370 E0.01682
G1 X100.386 Y84.130 E0.25618
G1 X100.921 Y84.130 E0.01682
G1 X95.161 Y78.370 E0.25618
G1 X95.696 Y78.370 E0.01682
G1 X101.456 Y84.130 E0.25618
G1 X101.991 Y84.130 E0.01682
G1 X96.231 Y78.370 E0.25618
G1 X96.765 Y78.370 E0.01682
G1 X102.526 Y84.130 E0.25618
G1 X103.061 Y84.130 E0.01682
G1 X97.300 Y78.370 E0.25618
G1 X97.835 Y78.370 E0.01682
G1 X103.595 Y84.130 E0.25618
G1 X104.130 Y84.130 E0.01682
G1 X98.370 Y78.370 E0.25618
G1 X98.905 Y78.370 E0.01682
G1 X104.665 Y84.130 E0.25618
G1 X105.200 Y84.130 E0.01682
G1 X99.440 Y78.370 E0.25618
G1 X99.975 Y78.370 E0.01682
G1 X105.735 Y84.130 E0.25618
G1 X106.270 Y84.130 E0.01682
G1 X100.509 Y78.370 E0.25618
G1 X101.044 Y78.370 E0.01682
G1 X107.032 Y84.357 E0.26628
G1 X107.541 Y84.331 F10800.000
G1 F1200
G1 X101.579 Y78.370 E0.26514
G1 X102.114 Y78.370 E0.01682
G1 X115.228 Y91.484 E0.58324
G1 X115.228 Y90.949 E0.01682
G1 X102.649 Y78.370 E0.55945
G1 X103.184 Y78.370 E0.01682
G1 X115.228 Y90.414 E0.53567
G1 X115.228 Y89.879 E0.01682
G1 X103.719 Y78.370 E0.51188
G1 X104.254 Y78.370 E0.01682
G1 X115.228 Y89.344 E0.48809
G1 X115.228 Y88.810 E0.01682
G1 X104.788 Y78.370 E0.46430
M73 Q4 S47
G1 X105.323 Y78.370 E0.01682
G1 X115.228 Y88.275 E0.44051
G1 X115.228 Y87.740 E0.01682
G1 X105.858 Y78.370 E0.41673
G1 X106.393 Y78.370 E0.01682
G1 X115.228 Y87.205 E0.39294
M73 P4 R46
G1 X115.250 Y86.692 E0.01616
G1 X106.928 Y78.370 E0.37011
G1 X107.463 Y78.370 E0.01682
G1 X115.335 Y86.242 E0.35011
G1 X115.366 Y86.112 E0.00419
G1 X115.476 Y85.848 E0.00900
G1 X107.998 Y78.370 E0.33258
G1 X108.532 Y78.370 E0.01682
G1 X115.660 Y85.498 E0.31700
G1 X115.774 Y85.312 E0.00686
G1 X115.882 Y85.185 E0.00524
G1 X109.067 Y78.370 E0.30309
G1 X109.602 Y78.370 E0.01682
G1 X116.139 Y84.907 E0.29073
G1 X116.430 Y84.663 E0.01194
G1 X110.137 Y78.370 E0.27989
G1 X110.672 Y78.370 E0.01682
G1 X116.762 Y84.460 E0.27086
G1 X117.136 Y84.299 E0.01280
G1 X111.207 Y78.370 E0.26369
G1 X111.742 Y78.370 E0.01682
G1 X117.557 Y84.185 E0.25862
G1 X118.039 Y84.132 E0.01525
G1 X112.277 Y78.370 E0.25627
G1 X112.811 Y78.370 E0.01682
G1 X118.572 Y84.130 E0.25618
G1 X119.107 Y84.130 E0.01682
G1 X113.346 Y78.370 E0.25618
G1 X113.881 Y78.370 E0.01682
G1 X119.641 Y84.130 E0.25618
G1 X120.176 Y84.130 E0.01682
G1 X114.416 Y78.370 E0.25618
G1 X114.951 Y78.370 E0.01682
G1 X120.711 Y84.130 E0.25618
G1 X121.246 Y84.130 E0.01682
G1 X115.486 Y78.370 E0.25618
G1 X116.021 Y78.370 E0.01682
G1 X121.781 Y84.130 E0.25618
G1 X122.316 Y84.130 E0.01682
G1 X116.556 Y78.370 E0.25618
G1 X117.090 Y78.370 E0.01682
G1 X122.851 Y84.130 E0.25618
G1 X123.386 Y84.130 E0.01682
G1 X117.625 Y78.370 E0.25618
G1 X118.160 Y78.370 E0.01682
G1 X123.920 Y84.130 E0.25618
G1 X124.455 Y84.130 E0.01682
G1 X118.695 Y78.370 E0.25618
G1 X119.230 Y78.370 E0.01682
G1 X124.990 Y84.130 E0.25618
G1 X125.525 Y84.130 E0.01682
G1 X119.765 Y78.370 E0.25618
G1 X120.300 Y78.370 E0.01682
G1 X126.060 Y84.130 E0.25618
G1 X126.595 Y84.130 E0.01682
G1 X120.834 Y78.370 E0.25618
G1 X121.369 Y78.370 E0.01682
G1 X127.130 Y84.130 E0.25618
G1 X127.664 Y84.130 E0.01682
G1 X121.904 Y78.370 E0.25618
G1 X122.439 Y78.370 E0.01682
G1 X128.199 Y84.130 E0.25618
G1 X128.734 Y84.130 E0.01682
G1 X122.974 Y78.370 E0.25618
G1 X123.509 Y78.370 E0.01682
G1 X129.269 Y84.130 E0.25618
G1 X129.804 Y84.130 E0.01682
G1 X124.044 Y78.370 E0.25618
G1 X124.579 Y78.370 E0.01682
G1 X130.339 Y84.130 E0.25618
G1 X130.874 Y84.130 E0.01682
G1 X125.113 Y78.370 E0.25618
G1 X125.648 Y78.370 E0.01682
G1 X131.409 Y84.130 E0.25618
G1 X131.943 Y84.130 E0.01682
G1 X126.183 Y78.370 E0.25619
G1 X126.718 Y78.370 E0.01682
G1 X132.478 Y84.130 E0.25618
G1 X133.013 Y84.130 E0.01682
G1 X127.253 Y78.370 E0.25618
G1 X127.788 Y78.370 E0.01682
G1 X133.548 Y84.130 E0.25618
G1 X134.083 Y84.130 E0.01682
G1 X128.323 Y78.370 E0.25618
G1 X128.857 Y78.370 E0.01682
G1 X134.618 Y84.130 E0.25618
G1 X135.153 Y84.130 E0.01682
G1 X129.392 Y78.370 E0.25618
G1 X129.927 Y78.370 E0.01682
G1 X135.687 Y84.130 E0.25618
G1 X136.222 Y84.130 E0.01682
G1 X130.462 Y78.370 E0.25618
G1 X130.997 Y78.370 E0.01682
G1 X136.757 Y84.130 E0.25618
G1 X137.292 Y84.130 E0.01682
G1 X131.532 Y78.370 E0.25618
G1 X132.067 Y78.370 E0.01682
G1 X137.827 Y84.130 E0.25618
G1 X138.362 Y84.130 E0.01682
G1 X132.602 Y78.370 E0.25618
