; generated by Slic3r 1.37.2.1-prusa3d-win64 on 2018-12-26 at 13:48:56

; 

; external perimeters extrusion width = 0.45mm
; perimeters extrusion width = 0.45mm
; infill extrusion width = 0.45mm
; solid infill extrusion width = 0.45mm
; top infill extrusion width = 0.40mm
; support material extrusion width = 0.35mm
; first layer extrusion width = 0.42mm

M107 ; disable fan
M115 U3.4.0 ; tell printer latest fw version
M83  ; extruder relative mode
M104 S215 ; set extruder temp
M140 S60 ; set bed temp
M190 S60 ; wait for bed temp
M109 S215 ; wait for extruder temp
G28 W ; home all without mesh bed level
G80 ; mesh bed leveling
G1 Y-3.0 F1000.0 ; go outside print area
G92 E0.0
G1 X60.0 E9.0  F1000.0 ; intro line
G1 X100.0 E12.5  F1000.0 ; intro line
G92 E0.0
M221 S95
M900 K30
G21 ; set units to millimeters
G90 ; use absolute coordinates
M83 ; use relative distances for extrusion
;BEFORE_LAYER_CHANGE
G92 E0.0
;0.2


G1 E-0.80000 F2100.00000 ; retract
G1 Z0.600 F10800.000 ; lift Z
;AFTER_LAYER_CHANGE
;0.2
G1 X151.539 Y181.510 F10800.000 ; move to first skirt point
G1 Z0.200 F10800.000 ; restore layer Z
G1 E0.80000 F2100.00000 ; unretract
M204 S1000 ; adjust acceleration
G1 F1200
G1 X150.884 Y181.877 E0.02355 ; skirt
G1 X150.143 Y182.020 E0.02367 ; skirt
G1 X99.929 Y182.021 E1.57441 ; skirt
G1 X99.308 Y181.938 E0.01965 ; skirt
G1 X98.721 Y181.689 E0.02000 ; skirt
G1 X98.220 Y181.293 E0.02000 ; skirt
G1 X97.844 Y180.778 E0.02000 ; skirt
G1 X97.617 Y180.181 E0.02000 ; skirt
G1 X85.280 Y124.065 E1.80152 ; skirt
G1 X84.369 Y119.341 E0.15083 ; skirt
G1 X83.708 Y114.562 E0.15126 ; skirt
G1 X83.272 Y109.764 E0.15106 ; skirt
G1 X82.979 Y102.635 E0.22371 ; skirt
G1 X82.965 Y50.349 E1.63940 ; skirt
G1 X83.123 Y47.716 E0.08270 ; skirt
G1 X83.548 Y45.306 E0.07674 ; skirt
G1 X83.881 Y44.047 E0.04083 ; skirt
G1 X84.778 Y41.571 E0.08258 ; skirt
G1 X85.938 Y39.261 E0.08103 ; skirt
G1 X87.358 Y37.102 E0.08103 ; skirt
G1 X89.063 Y35.078 E0.08297 ; skirt
G1 X90.388 Y33.804 E0.05765 ; skirt
G1 X91.849 Y32.598 E0.05939 ; skirt
G1 X94.004 Y31.172 E0.08103 ; skirt
G1 X96.366 Y29.980 E0.08294 ; skirt
G1 X98.838 Y29.084 E0.08246 ; skirt
G1 X101.370 Y28.491 E0.08154 ; skirt
G1 X103.796 Y28.208 E0.07658 ; skirt
G1 X105.102 Y28.166 E0.04095 ; skirt
G1 X144.905 Y28.166 E1.24800 ; skirt
G1 X147.367 Y28.310 E0.07734 ; skirt
G1 X148.761 Y28.514 E0.04417 ; skirt
G1 X151.190 Y29.092 E0.07829 ; skirt
G1 X153.573 Y29.955 E0.07948 ; skirt
G1 X154.861 Y30.555 E0.04453 ; skirt
G1 X157.038 Y31.816 E0.07888 ; skirt
G1 X159.079 Y33.332 E0.07972 ; skirt
G1 X160.937 Y35.078 E0.07995 ; skirt
G1 X161.884 Y36.142 E0.04465 ; skirt
G1 X163.386 Y38.165 E0.07900 ; skirt
G1 X164.673 Y40.393 E0.08067 ; skirt
G1 X165.674 Y42.705 E0.07900 ; skirt
G1 X166.122 Y44.058 E0.04469 ; skirt
G1 X166.698 Y46.502 E0.07873 ; skirt
G1 X166.995 Y49.031 E0.07984 ; skirt
G1 X167.459 Y117.915 E2.15987 ; skirt
G1 X152.360 Y180.271 E2.01161 ; skirt
G1 X152.050 Y180.955 E0.02355 ; skirt
G1 X151.580 Y181.466 E0.02178 ; skirt
G1 F8640
G1 X150.884 Y181.877 E-0.18662 ; wipe and retract
G1 F8640
G1 X150.143 Y182.020 E-0.17428 ; wipe and retract
G1 F8640
G1 X148.414 Y182.020 E-0.39910 ; wipe and retract
G1 E-0.04000 F2100.00000 ; retract
G1 Z0.800 F10800.000 ; lift Z
G1 X142.632 Y169.406 F10800.000 ; move to first support material interface point
G1 Z0.200 F10800.000 ; restore layer Z
G1 E0.80000 F2100.00000 ; unretract
G1 F1200
G1 X142.632 Y166.159 E0.08290 ; support material interface
G1 X142.417 Y165.889 E0.00882 ; support material interface
G1 X142.114 Y165.612 E0.01047 ; support material interface
G1 X142.114 Y169.723 E0.10496 ; support material interface
G1 X141.807 Y169.932 E0.00949 ; support material interface
G1 X141.597 Y170.034 E0.00597 ; support material interface
G1 X141.597 Y165.302 E0.12084 ; support material interface
G1 X141.455 Y165.233 E0.00400 ; support material interface
G1 X141.079 Y165.118 E0.01006 ; support material interface
G1 X141.079 Y170.218 E0.13022 ; support material interface
G1 X140.695 Y170.275 E0.00990 ; support material interface
G1 X140.561 Y170.275 E0.00343 ; support material interface
G1 X140.561 Y165.060 E0.13317 ; support material interface
G1 X140.305 Y165.060 E0.00655 ; support material interface
G1 X140.043 Y165.099 E0.00675 ; support material interface
G1 X140.043 Y170.236 E0.13116 ; support material interface
G1 X139.918 Y170.217 E0.00323 ; support material interface
G1 X139.525 Y170.093 E0.01052 ; support material interface
G1 X139.525 Y165.243 E0.12384 ; support material interface
G1 X139.193 Y165.403 E0.00944 ; support material interface
G1 X139.008 Y165.529 E0.00571 ; support material interface
G1 X139.008 Y169.806 E0.10921 ; support material interface
G1 X138.870 Y169.712 E0.00427 ; support material interface
G1 X138.583 Y169.446 E0.00998 ; support material interface
G1 X138.490 Y169.329 E0.00382 ; support material interface
G1 X138.490 Y166.006 E0.08486 ; support material interface
G1 X138.339 Y166.195 E0.00616 ; support material interface
G1 X138.144 Y166.533 E0.00998 ; support material interface
G1 X138.001 Y166.897 E0.00998 ; support material interface
G1 X137.972 Y167.025 E0.00334 ; support material interface
G1 X137.972 Y168.756 E0.04420 ; support material interface
G1 F8640
G1 X137.972 Y167.025 E-0.39971 ; wipe and retract
G1 F8640
G1 X138.001 Y166.897 E-0.03024 ; wipe and retract
G1 F8640
G1 X138.144 Y166.533 E-0.09025 ; wipe and retract
G1 F8640
G1 X138.339 Y166.195 E-0.09025 ; wipe and retract
G1 F8640
G1 X138.490 Y166.006 E-0.05572 ; wipe and retract
G1 F8640
G1 X138.490 Y166.412 E-0.09384 ; wipe and retract
G1 E-0.04000 F2100.00000 ; retract
G1 Z0.800 F10800.000 ; lift Z
G1 X142.632 Y156.179 F10800.000 ; move to first support material interface point
G1 Z0.200 F10800.000 ; restore layer Z
G1 E0.80000 F2100.00000 ; unretract
G1 F1200
G1 X142.632 Y153.940 E0.05717 ; support material interface
G1 X142.713 Y153.787 E0.00441 ; support material interface
G1 X142.917 Y153.515 E0.00869 ; support material interface
G1 X143.150 Y153.291 E0.00825 ; support material interface
G1 X143.150 Y156.544 E0.08305 ; support material interface
G1 X143.443 Y156.749 E0.00912 ; support material interface
G1 X143.668 Y156.856 E0.00637 ; support material interface
G1 X143.668 Y152.979 E0.09899 ; support material interface
G1 X144.077 Y152.846 E0.01099 ; support material interface
G1 X144.186 Y152.832 E0.00280 ; support material interface
G1 X144.186 Y157.003 E0.10649 ; support material interface
G1 X144.415 Y157.031 E0.00589 ; support material interface
G1 X144.704 Y157.019 E0.00738 ; support material interface
G1 X144.704 Y152.816 E0.10732 ; support material interface
G1 X144.755 Y152.818 E0.00131 ; support material interface
G1 X145.088 Y152.886 E0.00869 ; support material interface
G1 X145.221 Y152.937 E0.00363 ; support material interface
G1 X145.221 Y156.899 E0.10116 ; support material interface
G1 X145.407 Y156.828 E0.00506 ; support material interface
G1 X145.739 Y156.627 E0.00992 ; support material interface
G1 X145.739 Y153.208 E0.08731 ; support material interface
G1 X145.965 Y153.392 E0.00745 ; support material interface
G1 X146.191 Y153.647 E0.00869 ; support material interface
G1 X146.257 Y153.752 E0.00316 ; support material interface
G1 X146.257 Y156.329 E0.06580 ; support material interface
G1 F8640
G1 X146.257 Y153.752 E-0.59506 ; wipe and retract
G1 F8640
G1 X146.191 Y153.647 E-0.02862 ; wipe and retract
G1 F8640
G1 X145.965 Y153.392 E-0.07859 ; wipe and retract
G1 F8640
G1 X145.771 Y153.234 E-0.05773 ; wipe and retract
G1 E-0.04000 F2100.00000 ; retract
G1 Z0.800 F10800.000 ; lift Z
G1 X112.082 Y168.619 F10800.000 ; move to first support material interface point
G1 Z0.200 F10800.000 ; restore layer Z
G1 E0.80000 F2100.00000 ; unretract
G1 F1200
G1 X112.082 Y167.259 E0.03473 ; support material interface
G1 X111.999 Y166.897 E0.00949 ; support material interface
G1 X111.856 Y166.533 E0.00998 ; support material interface
G1 X111.661 Y166.195 E0.00998 ; support material interface
G1 X111.564 Y166.073 E0.00397 ; support material interface
G1 X111.564 Y169.262 E0.08143 ; support material interface
G1 X111.417 Y169.446 E0.00601 ; support material interface
G1 X111.046 Y169.770 E0.01257 ; support material interface
G1 X111.046 Y165.566 E0.10735 ; support material interface
G1 X110.808 Y165.403 E0.00737 ; support material interface
G1 X110.528 Y165.268 E0.00792 ; support material interface
G1 X110.528 Y170.067 E0.12252 ; support material interface
G1 X110.455 Y170.102 E0.00206 ; support material interface
G1 X110.010 Y170.228 E0.01181 ; support material interface
G1 X110.010 Y165.107 E0.13075 ; support material interface
G1 X109.695 Y165.060 E0.00813 ; support material interface
G1 X109.493 Y165.060 E0.00518 ; support material interface
G1 X109.493 Y170.275 E0.13317 ; support material interface
G1 X109.305 Y170.275 E0.00480 ; support material interface
G1 X108.975 Y170.226 E0.00852 ; support material interface
G1 X108.975 Y165.110 E0.13063 ; support material interface
G1 X108.545 Y165.233 E0.01143 ; support material interface
G1 X108.457 Y165.276 E0.00249 ; support material interface
G1 X108.457 Y170.060 E0.12215 ; support material interface
G1 X108.192 Y169.932 E0.00749 ; support material interface
G1 X107.939 Y169.760 E0.00783 ; support material interface
G1 X107.939 Y165.576 E0.10683 ; support material interface
G1 X107.583 Y165.889 E0.01211 ; support material interface
G1 X107.421 Y166.092 E0.00663 ; support material interface
G1 X107.421 Y169.244 E0.08047 ; support material interface
G1 X107.339 Y169.141 E0.00335 ; support material interface
G1 X107.144 Y168.802 E0.00998 ; support material interface
G1 X107.001 Y168.439 E0.00998 ; support material interface
G1 X106.914 Y168.057 E0.00998 ; support material interface
G1 X106.903 Y166.754 E0.03327 ; support material interface
G1 F8640
G1 X106.914 Y168.057 E-0.30090 ; wipe and retract
G1 F8640
G1 X107.001 Y168.439 E-0.09025 ; wipe and retract
G1 F8640
G1 X107.144 Y168.802 E-0.09024 ; wipe and retract
G1 F8640
G1 X107.339 Y169.141 E-0.09025 ; wipe and retract
G1 F8640
G1 X107.421 Y169.244 E-0.03033 ; wipe and retract
G1 F8640
G1 X107.421 Y168.559 E-0.15803 ; wipe and retract
G1 E-0.04000 F2100.00000 ; retract
G1 Z0.800 F10800.000 ; lift Z
G1 X107.421 Y156.091 F10800.000 ; move to first support material interface point
G1 Z0.200 F10800.000 ; restore layer Z
G1 E0.80000 F2100.00000 ; unretract
G1 F1200
G1 X107.421 Y154.049 E0.05214 ; support material interface
G1 X107.373 Y153.935 E0.00317 ; support material interface
G1 X107.191 Y153.647 E0.00869 ; support material interface
G1 X106.903 Y153.342 E0.01070 ; support material interface
G1 X106.903 Y156.493 E0.08046 ; support material interface
G1 X106.701 Y156.658 E0.00666 ; support material interface
G1 X106.386 Y156.836 E0.00926 ; support material interface
G1 X106.386 Y152.999 E0.09798 ; support material interface
G1 X106.088 Y152.886 E0.00812 ; support material interface
G1 X105.868 Y152.841 E0.00575 ; support material interface
G1 X105.868 Y156.994 E0.10604 ; support material interface
G1 X105.755 Y157.017 E0.00294 ; support material interface
G1 X105.350 Y157.023 E0.01034 ; support material interface
G1 X105.350 Y152.812 E0.10751 ; support material interface
G1 X105.077 Y152.846 E0.00702 ; support material interface
G1 X104.832 Y152.916 E0.00651 ; support material interface
G1 X104.832 Y156.919 E0.10220 ; support material interface
G1 X104.443 Y156.749 E0.01085 ; support material interface
G1 X104.314 Y156.661 E0.00398 ; support material interface
G1 X104.314 Y153.175 E0.08901 ; support material interface
G1 X104.162 Y153.280 E0.00471 ; support material interface
G1 X103.917 Y153.515 E0.00869 ; support material interface
G1 X103.797 Y153.676 E0.00512 ; support material interface
G1 X103.797 Y156.398 E0.06951 ; support material interface
G1 F8640
G1 X103.797 Y153.676 E-0.62862 ; wipe and retract
G1 F8640
G1 X103.917 Y153.515 E-0.04628 ; wipe and retract
G1 F8640
G1 X104.162 Y153.280 E-0.07859 ; wipe and retract
G1 F8640
G1 X104.186 Y153.264 E-0.00652 ; wipe and retract
G1 E-0.04000 F2100.00000 ; retract
G1 Z0.800 F10800.000 ; lift Z
G1 X91.887 Y117.367 F10800.000 ; move to first support material interface point
G1 Z0.200 F10800.000 ; restore layer Z
G1 E0.80000 F2100.00000 ; unretract
G1 F1200
G1 X91.887 Y115.676 E0.04320 ; support material interface
G1 X91.783 Y115.446 E0.00642 ; support material interface
G1 X91.606 Y115.184 E0.00808 ; support material interface
G1 X91.369 Y114.943 E0.00865 ; support material interface
G1 X91.369 Y117.769 E0.07217 ; support material interface
G1 X91.133 Y117.944 E0.00750 ; support material interface
G1 X90.851 Y118.086 E0.00806 ; support material interface
G1 X90.851 Y114.626 E0.08834 ; support material interface
G1 X90.548 Y114.533 E0.00809 ; support material interface
G1 X90.334 Y114.505 E0.00553 ; support material interface
G1 X90.334 Y118.206 E0.09449 ; support material interface
G1 X90.235 Y118.219 E0.00255 ; support material interface
G1 X89.919 Y118.205 E0.00808 ; support material interface
G1 X89.816 Y118.183 E0.00269 ; support material interface
G1 X89.816 Y114.528 E0.09332 ; support material interface
G1 X89.609 Y114.573 E0.00539 ; support material interface
G1 X89.298 Y114.702 E0.00861 ; support material interface
G1 X89.298 Y118.010 E0.08446 ; support material interface
G1 X89.047 Y117.855 E0.00754 ; support material interface
G1 X88.780 Y117.610 E0.00924 ; support material interface
G1 X88.780 Y114.901 E0.06918 ; support material interface
G1 F8640
G1 X88.780 Y117.610 E-0.62561 ; wipe and retract
G1 F8640
G1 X89.047 Y117.855 E-0.08359 ; wipe and retract
G1 F8640
G1 X89.234 Y117.970 E-0.05080 ; wipe and retract
G1 E-0.04000 F2100.00000 ; retract
G1 Z0.800 F10800.000 ; lift Z
G1 X91.887 Y103.367 F10800.000 ; move to first support material interface point
G1 Z0.200 F10800.000 ; restore layer Z
G1 E0.80000 F2100.00000 ; unretract
G1 F1200
G1 X91.887 Y101.676 E0.04320 ; support material interface
G1 X91.783 Y101.446 E0.00642 ; support material interface
G1 X91.606 Y101.184 E0.00808 ; support material interface
G1 X91.369 Y100.943 E0.00865 ; support material interface
G1 X91.369 Y103.769 E0.07217 ; support material interface
G1 X91.133 Y103.944 E0.00750 ; support material interface
G1 X90.851 Y104.086 E0.00806 ; support material interface
G1 X90.851 Y100.626 E0.08834 ; support material interface
G1 X90.548 Y100.533 E0.00809 ; support material interface
G1 X90.334 Y100.505 E0.00553 ; support material interface
G1 X90.334 Y104.206 E0.09449 ; support material interface
G1 X90.235 Y104.219 E0.00255 ; support material interface
G1 X89.919 Y104.205 E0.00808 ; support material interface
G1 X89.816 Y104.183 E0.00269 ; support material interface
G1 X89.816 Y100.528 E0.09332 ; support material interface
G1 X89.609 Y100.573 E0.00539 ; support material interface
G1 X89.298 Y100.702 E0.00861 ; support material interface
G1 X89.298 Y104.010 E0.08446 ; support material interface
G1 X89.047 Y103.855 E0.00754 ; support material interface
G1 X88.780 Y103.610 E0.00924 ; support material interface
G1 X88.780 Y100.901 E0.06918 ; support material interface
G1 F8640
G1 X88.780 Y103.610 E-0.62561 ; wipe and retract
G1 F8640
G1 X89.047 Y103.855 E-0.08359 ; wipe and retract
G1 F8640
G1 X89.234 Y103.970 E-0.05080 ; wipe and retract
G1 E-0.04000 F2100.00000 ; retract
G1 Z0.800 F10800.000 ; lift Z
G1 X118.813 Y114.520 F10800.000 ; move to first support material interface point
G1 Z0.200 F10800.000 ; restore layer Z
G1 E0.80000 F2100.00000 ; unretract
G1 F1200
G1 X118.813 Y112.500 E0.05157 ; support material interface
G1 X118.957 Y112.226 E0.00791 ; support material interface
G1 X119.162 Y111.953 E0.00869 ; support material interface
G1 X119.331 Y111.791 E0.00600 ; support material interface
G1 X119.331 Y114.921 E0.07993 ; support material interface
G1 X119.407 Y114.994 E0.00269 ; support material interface
G1 X119.687 Y115.187 E0.00869 ; support material interface
