; generated by Slic3r 1.37.2.1-prusa3d-win64 on 2018-12-26 at 11:31:13

; 

; external perimeters extrusion width = 0.45mm
; perimeters extrusion width = 0.45mm
; infill extrusion width = 0.45mm
; solid infill extrusion width = 0.45mm
; top infill extrusion width = 0.40mm
; support material extrusion width = 0.35mm
; first layer extrusion width = 0.42mm

M107 ; disable fan
M115 U3.4.0 ; tell printer latest fw version
M83  ; extruder relative mode
M104 S215 ; set extruder temp
M140 S60 ; set bed temp
M190 S60 ; wait for bed temp
M109 S215 ; wait for extruder temp
G28 W ; home all without mesh bed level
G80 ; mesh bed leveling
G1 Y-3.0 F1000.0 ; go outside print area
G92 E0.0
G1 X60.0 E9.0  F1000.0 ; intro line
G1 X100.0 E12.5  F1000.0 ; intro line
G92 E0.0
M221 S95
M900 K30
G21 ; set units to millimeters
G90 ; use absolute coordinates
M83 ; use relative distances for extrusion
;BEFORE_LAYER_CHANGE
G92 E0.0
;0.2


G1 E-0.80000 F2100.00000 ; retract
G1 Z0.600 F10800.000 ; lift Z
;AFTER_LAYER_CHANGE
;0.2
G1 X98.016 Y28.951 F10800.000 ; move to first skirt point
G1 Z0.200 F10800.000 ; restore layer Z
G1 E0.80000 F2100.00000 ; unretract
M204 S1000 ; adjust acceleration
G1 F1200
G1 X98.522 Y28.443 E0.02249 ; skirt
G1 X99.153 Y28.110 E0.02237 ; skirt
G1 X99.858 Y27.980 E0.02249 ; skirt
G1 X150.071 Y27.979 E1.57438 ; skirt
G1 X150.848 Y28.111 E0.02473 ; skirt
G1 X151.540 Y28.490 E0.02473 ; skirt
G1 X152.069 Y29.074 E0.02473 ; skirt
G1 X152.378 Y29.800 E0.02473 ; skirt
G1 X164.720 Y85.935 E1.80211 ; skirt
G1 X165.631 Y90.659 E0.15083 ; skirt
G1 X166.292 Y95.438 E0.15126 ; skirt
G1 X166.728 Y100.232 E0.15094 ; skirt
G1 X167.021 Y107.365 E0.22383 ; skirt
G1 X167.035 Y159.662 E1.63976 ; skirt
G1 X166.892 Y162.152 E0.07817 ; skirt
G1 X166.698 Y163.497 E0.04262 ; skirt
G1 X166.421 Y164.824 E0.04250 ; skirt
G1 X165.711 Y167.194 E0.07757 ; skirt
G1 X164.675 Y169.603 E0.08222 ; skirt
G1 X163.349 Y171.891 E0.08294 ; skirt
G1 X162.602 Y172.950 E0.04063 ; skirt
G1 X161.030 Y174.824 E0.07670 ; skirt
G1 X159.112 Y176.640 E0.08282 ; skirt
G1 X157.036 Y178.186 E0.08115 ; skirt
G1 X154.746 Y179.502 E0.08282 ; skirt
G1 X153.570 Y180.046 E0.04063 ; skirt
G1 X151.275 Y180.882 E0.07658 ; skirt
G1 X148.743 Y181.489 E0.08162 ; skirt
G1 X147.357 Y181.691 E0.04393 ; skirt
G1 X144.864 Y181.835 E0.07829 ; skirt
G1 X105.111 Y181.834 E1.24645 ; skirt
G1 X102.644 Y181.691 E0.07746 ; skirt
G1 X101.303 Y181.498 E0.04250 ; skirt
G1 X99.971 Y181.220 E0.04266 ; skirt
G1 X97.606 Y180.511 E0.07741 ; skirt
G1 X95.197 Y179.475 E0.08222 ; skirt
G1 X92.908 Y178.148 E0.08294 ; skirt
G1 X91.849 Y177.402 E0.04063 ; skirt
G1 X89.976 Y175.829 E0.07670 ; skirt
G1 X88.157 Y173.908 E0.08294 ; skirt
G1 X86.581 Y171.784 E0.08294 ; skirt
G1 X85.904 Y170.679 E0.04063 ; skirt
G1 X84.808 Y168.496 E0.07658 ; skirt
G1 X83.898 Y166.013 E0.08294 ; skirt
G1 X83.298 Y163.476 E0.08175 ; skirt
G1 X83.007 Y161.003 E0.07805 ; skirt
G1 X82.965 Y159.660 E0.04214 ; skirt
G1 X82.778 Y91.748 E2.12933 ; skirt
G1 X82.990 Y90.463 E0.04083 ; skirt
G1 X97.685 Y29.583 E1.96368 ; skirt
G1 X97.988 Y29.004 E0.02049 ; skirt
G1 F8640
G1 X98.522 Y28.443 E-0.17887 ; wipe and retract
G1 F8640
G1 X99.153 Y28.110 E-0.16472 ; wipe and retract
G1 F8640
G1 X99.858 Y27.980 E-0.16559 ; wipe and retract
G1 F8640
G1 X100.945 Y27.980 E-0.25082 ; wipe and retract
G1 E-0.04000 F2100.00000 ; retract
G1 Z0.800 F10800.000 ; lift Z
G1 X106.903 Y41.419 F10800.000 ; move to first support material interface point
G1 Z0.200 F10800.000 ; restore layer Z
G1 E0.80000 F2100.00000 ; unretract
G1 F1200
G1 X106.914 Y42.722 E0.03327 ; support material interface
G1 X107.001 Y43.103 E0.00998 ; support material interface
G1 X107.144 Y43.467 E0.00998 ; support material interface
G1 X107.339 Y43.805 E0.00998 ; support material interface
G1 X107.421 Y43.908 E0.00335 ; support material interface
G1 X107.421 Y40.756 E0.08047 ; support material interface
G1 X107.583 Y40.554 E0.00662 ; support material interface
G1 X107.939 Y40.240 E0.01211 ; support material interface
G1 X107.939 Y44.424 E0.10683 ; support material interface
G1 X108.192 Y44.597 E0.00783 ; support material interface
G1 X108.457 Y44.724 E0.00749 ; support material interface
G1 X108.457 Y39.940 E0.12215 ; support material interface
G1 X108.545 Y39.898 E0.00249 ; support material interface
G1 X108.975 Y39.774 E0.01143 ; support material interface
G1 X108.975 Y44.890 E0.13063 ; support material interface
G1 X109.305 Y44.940 E0.00852 ; support material interface
G1 X109.493 Y44.940 E0.00480 ; support material interface
G1 X109.493 Y39.725 E0.13317 ; support material interface
G1 X109.695 Y39.725 E0.00518 ; support material interface
G1 X110.010 Y39.772 E0.00813 ; support material interface
G1 X110.010 Y44.893 E0.13075 ; support material interface
G1 X110.455 Y44.767 E0.01181 ; support material interface
G1 X110.528 Y44.732 E0.00206 ; support material interface
G1 X110.528 Y39.933 E0.12252 ; support material interface
G1 X110.808 Y40.068 E0.00792 ; support material interface
G1 X111.046 Y40.230 E0.00737 ; support material interface
G1 X111.046 Y44.434 E0.10735 ; support material interface
G1 X111.417 Y44.111 E0.01257 ; support material interface
G1 X111.564 Y43.927 E0.00601 ; support material interface
G1 X111.564 Y40.738 E0.08143 ; support material interface
G1 X111.661 Y40.859 E0.00397 ; support material interface
G1 X111.856 Y41.198 E0.00998 ; support material interface
G1 X111.999 Y41.561 E0.00998 ; support material interface
G1 X112.082 Y41.924 E0.00949 ; support material interface
G1 X112.082 Y43.284 E0.03472 ; support material interface
G1 F8640
G1 X112.082 Y41.924 E-0.31401 ; wipe and retract
G1 F8640
G1 X111.999 Y41.561 E-0.08583 ; wipe and retract
G1 F8640
G1 X111.856 Y41.198 E-0.09025 ; wipe and retract
G1 F8640
G1 X111.661 Y40.859 E-0.09025 ; wipe and retract
G1 F8640
G1 X111.564 Y40.738 E-0.03588 ; wipe and retract
G1 F8640
G1 X111.564 Y41.360 E-0.14379 ; wipe and retract
G1 E-0.04000 F2100.00000 ; retract
G1 Z0.800 F10800.000 ; lift Z
G1 X107.421 Y56.265 F10800.000 ; move to first support material interface point
G1 Z0.200 F10800.000 ; restore layer Z
G1 E0.80000 F2100.00000 ; unretract
G1 F1200
G1 X107.421 Y54.207 E0.05256 ; support material interface
G1 X107.287 Y53.952 E0.00735 ; support material interface
G1 X107.083 Y53.680 E0.00869 ; support material interface
G1 X106.903 Y53.507 E0.00636 ; support material interface
G1 X106.903 Y56.657 E0.08042 ; support material interface
G1 X106.557 Y56.914 E0.01100 ; support material interface
G1 X106.386 Y56.995 E0.00485 ; support material interface
G1 X106.386 Y53.169 E0.09769 ; support material interface
G1 X106.250 Y53.105 E0.00384 ; support material interface
G1 X105.868 Y53.003 E0.01009 ; support material interface
G1 X105.868 Y57.161 E0.10616 ; support material interface
G1 X105.585 Y57.195 E0.00727 ; support material interface
G1 X105.350 Y57.186 E0.00601 ; support material interface
G1 X105.350 Y52.979 E0.10743 ; support material interface
G1 X105.245 Y52.983 E0.00268 ; support material interface
G1 X104.832 Y53.081 E0.01084 ; support material interface
G1 X104.832 Y57.084 E0.10220 ; support material interface
G1 X104.593 Y56.993 E0.00652 ; support material interface
G1 X104.314 Y56.832 E0.00822 ; support material interface
G1 X104.314 Y53.333 E0.08935 ; support material interface
G1 X104.035 Y53.557 E0.00915 ; support material interface
G1 X103.797 Y53.832 E0.00929 ; support material interface
G1 X103.797 Y56.554 E0.06951 ; support material interface
G1 F8640
G1 X103.797 Y53.832 E-0.62858 ; wipe and retract
G1 F8640
G1 X104.035 Y53.557 E-0.08400 ; wipe and retract
G1 F8640
G1 X104.195 Y53.428 E-0.04742 ; wipe and retract
G1 E-0.04000 F2100.00000 ; retract
G1 Z0.800 F10800.000 ; lift Z
G1 X137.972 Y43.420 F10800.000 ; move to first support material interface point
G1 Z0.200 F10800.000 ; restore layer Z
G1 E0.80000 F2100.00000 ; unretract
G1 F1200
G1 X137.972 Y41.689 E0.04420 ; support material interface
G1 X138.001 Y41.561 E0.00334 ; support material interface
G1 X138.144 Y41.198 E0.00998 ; support material interface
G1 X138.339 Y40.859 E0.00998 ; support material interface
G1 X138.490 Y40.671 E0.00616 ; support material interface
G1 X138.490 Y43.994 E0.08486 ; support material interface
G1 X138.583 Y44.111 E0.00382 ; support material interface
G1 X138.870 Y44.377 E0.00998 ; support material interface
G1 X139.008 Y44.471 E0.00427 ; support material interface
G1 X139.008 Y40.194 E0.10922 ; support material interface
G1 X139.192 Y40.068 E0.00571 ; support material interface
G1 X139.525 Y39.907 E0.00944 ; support material interface
G1 X139.525 Y44.757 E0.12384 ; support material interface
G1 X139.918 Y44.882 E0.01052 ; support material interface
G1 X140.043 Y44.901 E0.00323 ; support material interface
G1 X140.043 Y39.764 E0.13116 ; support material interface
G1 X140.305 Y39.725 E0.00675 ; support material interface
G1 X140.561 Y39.725 E0.00655 ; support material interface
G1 X140.561 Y44.940 E0.13317 ; support material interface
G1 X140.695 Y44.940 E0.00343 ; support material interface
G1 X141.079 Y44.882 E0.00990 ; support material interface
G1 X141.079 Y39.782 E0.13022 ; support material interface
G1 X141.455 Y39.898 E0.01006 ; support material interface
G1 X141.597 Y39.966 E0.00400 ; support material interface
G1 X141.597 Y44.698 E0.12084 ; support material interface
G1 X141.808 Y44.597 E0.00598 ; support material interface
G1 X142.114 Y44.388 E0.00949 ; support material interface
G1 X142.114 Y40.277 E0.10496 ; support material interface
G1 X142.417 Y40.554 E0.01047 ; support material interface
G1 X142.632 Y40.824 E0.00882 ; support material interface
G1 X142.632 Y44.070 E0.08290 ; support material interface
G1 F8640
G1 X142.632 Y40.824 E-0.74966 ; wipe and retract
G1 F8640
G1 X142.604 Y40.789 E-0.01034 ; wipe and retract
G1 E-0.04000 F2100.00000 ; retract
G1 Z0.800 F10800.000 ; lift Z
G1 X142.632 Y56.340 F10800.000 ; move to first support material interface point
G1 Z0.200 F10800.000 ; restore layer Z
G1 E0.80000 F2100.00000 ; unretract
G1 F1200
G1 X142.632 Y54.092 E0.05742 ; support material interface
G1 X142.809 Y53.812 E0.00846 ; support material interface
G1 X143.035 Y53.557 E0.00869 ; support material interface
G1 X143.150 Y53.463 E0.00379 ; support material interface
G1 X143.150 Y56.702 E0.08269 ; support material interface
G1 X143.299 Y56.823 E0.00490 ; support material interface
G1 X143.668 Y57.021 E0.01070 ; support material interface
G1 X143.668 Y53.143 E0.09902 ; support material interface
G1 X143.912 Y53.051 E0.00666 ; support material interface
G1 X144.186 Y52.995 E0.00714 ; support material interface
G1 X144.186 Y57.170 E0.10659 ; support material interface
G1 X144.585 Y57.195 E0.01022 ; support material interface
G1 X144.704 Y57.181 E0.00304 ; support material interface
G1 X144.704 Y52.984 E0.10718 ; support material interface
G1 X144.923 Y53.010 E0.00565 ; support material interface
G1 X145.221 Y53.097 E0.00793 ; support material interface
G1 X145.221 Y57.068 E0.10141 ; support material interface
G1 X145.557 Y56.914 E0.00944 ; support material interface
G1 X145.739 Y56.788 E0.00564 ; support material interface
G1 X145.739 Y53.376 E0.08713 ; support material interface
G1 X145.838 Y53.444 E0.00305 ; support material interface
G1 X146.083 Y53.680 E0.00869 ; support material interface
G1 X146.257 Y53.911 E0.00739 ; support material interface
G1 X146.257 Y56.491 E0.06587 ; support material interface
G1 F8640
G1 X146.257 Y53.911 E-0.59570 ; wipe and retract
G1 F8640
G1 X146.083 Y53.680 E-0.06686 ; wipe and retract
G1 F8640
G1 X145.838 Y53.444 E-0.07859 ; wipe and retract
G1 F8640
G1 X145.770 Y53.398 E-0.01885 ; wipe and retract
G1 E-0.04000 F2100.00000 ; retract
G1 Z0.800 F10800.000 ; lift Z
G1 X158.167 Y92.553 F10800.000 ; move to first support material interface point
G1 Z0.200 F10800.000 ; restore layer Z
G1 E0.80000 F2100.00000 ; unretract
G1 F1200
G1 X158.167 Y94.443 E0.04825 ; support material interface
G1 X158.217 Y94.554 E0.00310 ; support material interface
G1 X158.394 Y94.816 E0.00808 ; support material interface
G1 X158.684 Y95.097 E0.01033 ; support material interface
G1 X158.684 Y92.191 E0.07420 ; support material interface
G1 X158.867 Y92.056 E0.00579 ; support material interface
G1 X159.202 Y91.898 E0.00947 ; support material interface
G1 X159.202 Y95.391 E0.08919 ; support material interface
G1 X159.452 Y95.467 E0.00666 ; support material interface
G1 X159.720 Y95.501 E0.00691 ; support material interface
G1 X159.720 Y91.787 E0.09484 ; support material interface
G1 X160.081 Y91.795 E0.00923 ; support material interface
G1 X160.238 Y91.828 E0.00409 ; support material interface
G1 X160.238 Y95.460 E0.09273 ; support material interface
G1 X160.391 Y95.427 E0.00399 ; support material interface
G1 X160.756 Y95.265 E0.01020 ; support material interface
G1 X160.756 Y92.023 E0.08278 ; support material interface
G1 X160.953 Y92.145 E0.00593 ; support material interface
G1 X161.191 Y92.354 E0.00808 ; support material interface
G1 X161.273 Y92.456 E0.00336 ; support material interface
G1 X161.273 Y95.052 E0.06628 ; support material interface
G1 F8640
G1 X161.273 Y92.456 E-0.59941 ; wipe and retract
G1 F8640
G1 X161.191 Y92.354 E-0.03038 ; wipe and retract
G1 F8640
G1 X160.953 Y92.145 E-0.07303 ; wipe and retract
G1 F8640
G1 X160.756 Y92.023 E-0.05362 ; wipe and retract
G1 F8640
G1 X160.756 Y92.039 E-0.00357 ; wipe and retract
G1 E-0.04000 F2100.00000 ; retract
G1 Z0.800 F10800.000 ; lift Z
G1 X158.167 Y106.553 F10800.000 ; move to first support material interface point
G1 Z0.200 F10800.000 ; restore layer Z
G1 E0.80000 F2100.00000 ; unretract
G1 F1200
G1 X158.167 Y108.443 E0.04825 ; support material interface
G1 X158.217 Y108.554 E0.00310 ; support material interface
G1 X158.394 Y108.816 E0.00808 ; support material interface
G1 X158.684 Y109.097 E0.01033 ; support material interface
G1 X158.684 Y106.191 E0.07420 ; support material interface
G1 X158.867 Y106.056 E0.00580 ; support material interface
G1 X159.202 Y105.898 E0.00947 ; support material interface
G1 X159.202 Y109.391 E0.08919 ; support material interface
G1 X159.452 Y109.467 E0.00666 ; support material interface
G1 X159.720 Y109.501 E0.00691 ; support material interface
G1 X159.720 Y105.787 E0.09484 ; support material interface
G1 X160.081 Y105.795 E0.00923 ; support material interface
G1 X160.238 Y105.828 E0.00409 ; support material interface
G1 X160.238 Y109.460 E0.09273 ; support material interface
G1 X160.391 Y109.427 E0.00399 ; support material interface
G1 X160.756 Y109.265 E0.01020 ; support material interface
G1 X160.756 Y106.023 E0.08278 ; support material interface
G1 X160.953 Y106.145 E0.00593 ; support material interface
G1 X161.191 Y106.354 E0.00808 ; support material interface
G1 X161.273 Y106.456 E0.00336 ; support material interface
G1 X161.273 Y109.052 E0.06628 ; support material interface
G1 F8640
G1 X161.273 Y106.456 E-0.59941 ; wipe and retract
G1 F8640
G1 X161.191 Y106.354 E-0.03038 ; wipe and retract
G1 F8640
G1 X160.953 Y106.145 E-0.07303 ; wipe and retract
G1 F8640
G1 X160.756 Y106.023 E-0.05362 ; wipe and retract
G1 F8640
G1 X160.756 Y106.039 E-0.00357 ; wipe and retract
G1 E-0.04000 F2100.00000 ; retract
G1 Z0.800 F10800.000 ; lift Z
G1 X127.388 Y103.030 F10800.000 ; move to first support material point
G1 Z0.200 F10800.000 ; restore layer Z
G1 E0.80000 F2100.00000 ; unretract
G1 F1200
G1 X127.388 Y99.491 E0.11096 ; support material
G1 X126.634 Y99.491 E0.02365 ; support material
G1 X126.634 Y102.860 E0.10564 ; support material
G1 X125.880 Y102.860 E0.02365 ; support material
G1 X125.880 Y99.491 E0.10564 ; support material
G1 X125.126 Y99.491 E0.02365 ; support material
G1 X125.126 Y102.860 E0.10564 ; support material
G1 X124.372 Y102.860 E0.02365 ; support material
G1 X124.372 Y99.491 E0.10564 ; support material
G1 X123.618 Y99.493 E0.02365 ; support material
G1 X123.618 Y102.860 E0.10559 ; support material
G1 X122.863 Y102.860 E0.02365 ; support material
