; generated by Slic3r 1.37.2.1-prusa3d-win64 on 2018-12-26 at 13:21:19

; 

; external perimeters extrusion width = 0.45mm
; perimeters extrusion width = 0.45mm
; infill extrusion width = 0.45mm
; solid infill extrusion width = 0.45mm
; top infill extrusion width = 0.40mm
; support material extrusion width = 0.35mm
; first layer extrusion width = 0.42mm

M107 ; disable fan
M115 U3.4.0 ; tell printer latest fw version
M83  ; extruder relative mode
M104 S215 ; set extruder temp
M140 S60 ; set bed temp
M190 S60 ; wait for bed temp
M109 S215 ; wait for extruder temp
G28 W ; home all without mesh bed level
G80 ; mesh bed leveling
G1 Y-3.0 F1000.0 ; go outside print area
G92 E0.0
G1 X60.0 E9.0  F1000.0 ; intro line
G1 X100.0 E12.5  F1000.0 ; intro line
G92 E0.0
M221 S95
M900 K30
G21 ; set units to millimeters
G90 ; use absolute coordinates
M83 ; use relative distances for extrusion
;BEFORE_LAYER_CHANGE
G92 E0.0
;0.2


G1 E-0.80000 F2100.00000 ; retract
G1 Z0.600 F10800.000 ; lift Z
;AFTER_LAYER_CHANGE
;0.2
G1 X64.290 Y62.731 F10800.000 ; move to first skirt point
G1 Z0.200 F10800.000 ; restore layer Z
G1 E0.80000 F2100.00000 ; unretract
M204 S1000 ; adjust acceleration
G1 F1200
G1 X64.991 Y62.623 E0.02225 ; skirt
G1 X185.004 Y62.623 E3.76291 ; skirt
G1 X185.902 Y62.801 E0.02872 ; skirt
G1 X186.670 Y63.308 E0.02884 ; skirt
G1 X187.185 Y64.065 E0.02872 ; skirt
G1 X187.377 Y64.961 E0.02872 ; skirt
G1 X187.377 Y145.030 E2.51053 ; skirt
G1 X187.302 Y145.592 E0.01775 ; skirt
G1 X187.097 Y146.119 E0.01775 ; skirt
G1 X186.773 Y146.584 E0.01775 ; skirt
G1 X186.345 Y146.960 E0.01787 ; skirt
G1 X185.710 Y147.269 E0.02213 ; skirt
G1 X185.009 Y147.377 E0.02225 ; skirt
G1 X64.989 Y147.377 E3.76315 ; skirt
G1 X64.423 Y147.306 E0.01787 ; skirt
G1 X63.887 Y147.101 E0.01799 ; skirt
G1 X63.419 Y146.775 E0.01787 ; skirt
G1 X63.040 Y146.345 E0.01799 ; skirt
G1 X62.731 Y145.710 E0.02213 ; skirt
G1 X62.623 Y145.013 E0.02213 ; skirt
G1 X62.623 Y64.981 E2.50933 ; skirt
G1 X62.696 Y64.416 E0.01787 ; skirt
G1 X62.901 Y63.884 E0.01787 ; skirt
G1 X63.227 Y63.416 E0.01787 ; skirt
G1 X63.655 Y63.040 E0.01787 ; skirt
G1 X64.236 Y62.758 E0.02025 ; skirt
G1 F8640
G1 X64.991 Y62.623 E-0.17714 ; wipe and retract
G1 F8640
G1 X67.516 Y62.623 E-0.58286 ; wipe and retract
G1 E-0.04000 F2100.00000 ; retract
G1 Z0.800 F10800.000 ; lift Z
G1 X89.413 Y69.413 F10800.000 ; move to first perimeter point
G1 Z0.200 F10800.000 ; restore layer Z
G1 E0.80000 F2100.00000 ; unretract
G1 F1200
G1 X175.587 Y69.413 E2.70193 ; perimeter
G1 X175.587 Y140.587 E2.23162 ; perimeter
G1 X89.413 Y140.587 E2.70193 ; perimeter
G1 X89.413 Y69.473 E2.22973 ; perimeter
G1 X89.790 Y69.790 F10800.000 ; move to first perimeter point
G1 F1200
G1 X175.210 Y69.790 E2.67828 ; perimeter
G1 X175.210 Y140.210 E2.20797 ; perimeter
G1 X89.790 Y140.210 E2.67828 ; perimeter
G1 X89.790 Y69.850 E2.20609 ; perimeter
G1 X89.674 Y69.407 F10800.000 ; move inwards before travel
G1 F8640
G1 X93.081 Y69.848 E-0.76000 ; wipe and retract
G1 E-0.04000 F2100.00000 ; retract
G1 Z0.800 F10800.000 ; lift Z
G1 X84.587 Y80.913 F10800.000 ; move to first perimeter point
G1 Z0.200 F10800.000 ; restore layer Z
G1 E0.80000 F2100.00000 ; unretract
G1 F1200
G1 X84.587 Y95.587 E0.46010 ; perimeter
G1 X75.413 Y95.587 E0.28765 ; perimeter
G1 X75.413 Y80.913 E0.46010 ; perimeter
G1 X84.527 Y80.913 E0.28577 ; perimeter
G1 X84.210 Y81.290 F10800.000 ; move to first perimeter point
G1 F1200
G1 X84.210 Y95.210 E0.43645 ; perimeter
G1 X75.790 Y95.210 E0.26400 ; perimeter
G1 X75.790 Y81.290 E0.43645 ; perimeter
G1 X84.150 Y81.290 E0.26212 ; perimeter
G1 X84.587 Y81.156 F10800.000 ; move inwards before travel
G1 F8640
G1 X84.164 Y84.581 E-0.76000 ; wipe and retract
G1 E-0.04000 F2100.00000 ; retract
G1 Z0.800 F10800.000 ; lift Z
G1 X74.104 Y83.582 F10800.000 ; move to first perimeter point
G1 Z0.200 F10800.000 ; restore layer Z
G1 E0.80000 F2100.00000 ; unretract
G1 F1200
G1 X74.139 Y84.050 E0.01471 ; perimeter
G1 X74.104 Y84.518 E0.01471 ; perimeter
G1 X73.999 Y84.975 E0.01471 ; perimeter
G1 X73.828 Y85.412 E0.01471 ; perimeter
G1 X73.593 Y85.818 E0.01471 ; perimeter
G1 X73.301 Y86.185 E0.01471 ; perimeter
G1 X72.957 Y86.504 E0.01471 ; perimeter
G1 X72.569 Y86.768 E0.01471 ; perimeter
G1 X72.147 Y86.972 E0.01471 ; perimeter
G1 X71.698 Y87.110 E0.01471 ; perimeter
G1 X71.235 Y87.180 E0.01471 ; perimeter
G1 X70.765 Y87.180 E0.01471 ; perimeter
G1 X70.302 Y87.110 E0.01471 ; perimeter
G1 X69.853 Y86.972 E0.01471 ; perimeter
G1 X69.431 Y86.768 E0.01471 ; perimeter
G1 X69.043 Y86.504 E0.01471 ; perimeter
G1 X68.699 Y86.185 E0.01471 ; perimeter
G1 X68.407 Y85.818 E0.01471 ; perimeter
G1 X68.177 Y85.421 E0.01438 ; perimeter
G1 X68.001 Y84.976 E0.01500 ; perimeter
G1 X67.896 Y84.518 E0.01474 ; perimeter
G1 X67.861 Y84.050 E0.01471 ; perimeter
G1 X67.896 Y83.582 E0.01471 ; perimeter
G1 X68.001 Y83.125 E0.01471 ; perimeter
G1 X68.172 Y82.688 E0.01471 ; perimeter
G1 X68.407 Y82.282 E0.01471 ; perimeter
G1 X68.699 Y81.915 E0.01471 ; perimeter
G1 X69.043 Y81.596 E0.01471 ; perimeter
G1 X69.431 Y81.332 E0.01471 ; perimeter
G1 X69.853 Y81.128 E0.01471 ; perimeter
G1 X70.291 Y80.993 E0.01438 ; perimeter
G1 X70.764 Y80.920 E0.01500 ; perimeter
G1 X71.235 Y80.920 E0.01474 ; perimeter
G1 X71.698 Y80.990 E0.01471 ; perimeter
G1 X72.147 Y81.128 E0.01471 ; perimeter
G1 X72.569 Y81.332 E0.01471 ; perimeter
G1 X72.957 Y81.596 E0.01471 ; perimeter
G1 X73.301 Y81.915 E0.01471 ; perimeter
G1 X73.593 Y82.282 E0.01471 ; perimeter
G1 X73.828 Y82.688 E0.01471 ; perimeter
G1 X73.999 Y83.125 E0.01471 ; perimeter
G1 X74.090 Y83.524 E0.01283 ; perimeter
G1 X73.723 Y83.608 F10800.000 ; move to first perimeter point
G1 F1200
G1 X73.761 Y84.050 E0.01392 ; perimeter
G1 X73.730 Y84.461 E0.01294 ; perimeter
G1 X73.638 Y84.864 E0.01294 ; perimeter
G1 X73.487 Y85.248 E0.01294 ; perimeter
G1 X73.281 Y85.605 E0.01294 ; perimeter
G1 X73.024 Y85.928 E0.01294 ; perimeter
G1 X72.721 Y86.208 E0.01294 ; perimeter
G1 X72.380 Y86.441 E0.01294 ; perimeter
G1 X72.009 Y86.620 E0.01294 ; perimeter
G1 X71.614 Y86.741 E0.01294 ; perimeter
G1 X71.206 Y86.803 E0.01294 ; perimeter
G1 X70.794 Y86.803 E0.01294 ; perimeter
G1 X70.386 Y86.741 E0.01294 ; perimeter
G1 X69.991 Y86.620 E0.01294 ; perimeter
G1 X69.620 Y86.441 E0.01294 ; perimeter
G1 X69.279 Y86.208 E0.01294 ; perimeter
G1 X68.976 Y85.928 E0.01294 ; perimeter
G1 X68.719 Y85.605 E0.01294 ; perimeter
G1 X68.518 Y85.256 E0.01263 ; perimeter
G1 X68.362 Y84.864 E0.01323 ; perimeter
G1 X68.270 Y84.461 E0.01295 ; perimeter
G1 X68.239 Y84.050 E0.01294 ; perimeter
G1 X68.270 Y83.639 E0.01294 ; perimeter
G1 X68.362 Y83.236 E0.01294 ; perimeter
G1 X68.513 Y82.852 E0.01294 ; perimeter
G1 X68.719 Y82.495 E0.01294 ; perimeter
G1 X68.976 Y82.172 E0.01294 ; perimeter
G1 X69.279 Y81.892 E0.01294 ; perimeter
G1 X69.620 Y81.659 E0.01294 ; perimeter
G1 X69.991 Y81.480 E0.01294 ; perimeter
G1 X70.376 Y81.362 E0.01263 ; perimeter
G1 X70.793 Y81.297 E0.01323 ; perimeter
G1 X71.206 Y81.297 E0.01295 ; perimeter
G1 X71.614 Y81.359 E0.01294 ; perimeter
G1 X72.009 Y81.480 E0.01294 ; perimeter
G1 X72.380 Y81.659 E0.01294 ; perimeter
G1 X72.721 Y81.892 E0.01294 ; perimeter
G1 X73.024 Y82.172 E0.01294 ; perimeter
G1 X73.281 Y82.495 E0.01294 ; perimeter
G1 X73.487 Y82.852 E0.01294 ; perimeter
G1 X73.638 Y83.236 E0.01294 ; perimeter
G1 X73.709 Y83.549 E0.01006 ; perimeter
G1 X74.096 Y83.751 F10800.000 ; move inwards before travel
G1 F8640
G1 X73.761 Y84.050 E-0.11626 ; wipe and retract
G1 F8640
G1 X73.730 Y84.461 E-0.09527 ; wipe and retract
G1 F8640
G1 X73.638 Y84.864 E-0.09527 ; wipe and retract
G1 F8640
G1 X73.487 Y85.248 E-0.09527 ; wipe and retract
G1 F8640
G1 X73.281 Y85.605 E-0.09527 ; wipe and retract
G1 F8640
G1 X73.024 Y85.928 E-0.09527 ; wipe and retract
G1 F8640
G1 X72.721 Y86.208 E-0.09527 ; wipe and retract
G1 F8640
G1 X72.463 Y86.384 E-0.07212 ; wipe and retract
G1 E-0.04000 F2100.00000 ; retract
G1 Z0.800 F10800.000 ; lift Z
G1 X71.698 Y89.390 F10800.000 ; move to first perimeter point
G1 Z0.200 F10800.000 ; restore layer Z
G1 E0.80000 F2100.00000 ; unretract
G1 F1200
G1 X72.147 Y89.528 E0.01471 ; perimeter
G1 X72.569 Y89.732 E0.01471 ; perimeter
G1 X72.957 Y89.996 E0.01471 ; perimeter
G1 X73.301 Y90.315 E0.01471 ; perimeter
G1 X73.587 Y90.674 E0.01438 ; perimeter
G1 X73.828 Y91.087 E0.01500 ; perimeter
G1 X73.999 Y91.525 E0.01474 ; perimeter
G1 X74.104 Y91.982 E0.01471 ; perimeter
G1 X74.139 Y92.450 E0.01471 ; perimeter
G1 X74.104 Y92.918 E0.01471 ; perimeter
G1 X73.999 Y93.375 E0.01471 ; perimeter
G1 X73.828 Y93.812 E0.01471 ; perimeter
G1 X73.593 Y94.218 E0.01471 ; perimeter
G1 X73.301 Y94.585 E0.01471 ; perimeter
G1 X72.957 Y94.904 E0.01471 ; perimeter
G1 X72.569 Y95.168 E0.01471 ; perimeter
G1 X72.147 Y95.372 E0.01471 ; perimeter
G1 X71.698 Y95.510 E0.01471 ; perimeter
G1 X71.235 Y95.580 E0.01471 ; perimeter
G1 X70.765 Y95.580 E0.01471 ; perimeter
G1 X70.302 Y95.510 E0.01471 ; perimeter
G1 X69.853 Y95.372 E0.01471 ; perimeter
G1 X69.431 Y95.168 E0.01471 ; perimeter
G1 X69.043 Y94.904 E0.01471 ; perimeter
G1 X68.699 Y94.585 E0.01471 ; perimeter
G1 X68.407 Y94.218 E0.01471 ; perimeter
G1 X68.172 Y93.812 E0.01471 ; perimeter
G1 X68.001 Y93.375 E0.01471 ; perimeter
G1 X67.896 Y92.918 E0.01471 ; perimeter
G1 X67.861 Y92.450 E0.01471 ; perimeter
G1 X67.896 Y91.982 E0.01471 ; perimeter
G1 X68.001 Y91.525 E0.01471 ; perimeter
G1 X68.172 Y91.088 E0.01471 ; perimeter
G1 X68.407 Y90.682 E0.01471 ; perimeter
G1 X68.699 Y90.315 E0.01471 ; perimeter
G1 X69.043 Y89.996 E0.01471 ; perimeter
G1 X69.431 Y89.732 E0.01471 ; perimeter
G1 X69.853 Y89.528 E0.01471 ; perimeter
G1 X70.291 Y89.393 E0.01438 ; perimeter
G1 X70.764 Y89.320 E0.01500 ; perimeter
G1 X71.235 Y89.320 E0.01474 ; perimeter
G1 X71.639 Y89.381 E0.01283 ; perimeter
G1 X71.583 Y89.754 F10800.000 ; move to first perimeter point
G1 F1200
G1 X72.009 Y89.880 E0.01392 ; perimeter
G1 X72.380 Y90.059 E0.01294 ; perimeter
G1 X72.721 Y90.292 E0.01294 ; perimeter
G1 X73.024 Y90.572 E0.01294 ; perimeter
G1 X73.275 Y90.887 E0.01263 ; perimeter
G1 X73.487 Y91.252 E0.01323 ; perimeter
G1 X73.638 Y91.636 E0.01295 ; perimeter
G1 X73.730 Y92.039 E0.01294 ; perimeter
G1 X73.761 Y92.450 E0.01294 ; perimeter
G1 X73.730 Y92.861 E0.01294 ; perimeter
G1 X73.638 Y93.264 E0.01294 ; perimeter
G1 X73.487 Y93.648 E0.01294 ; perimeter
G1 X73.281 Y94.005 E0.01294 ; perimeter
G1 X73.024 Y94.328 E0.01294 ; perimeter
G1 X72.721 Y94.608 E0.01294 ; perimeter
G1 X72.380 Y94.841 E0.01294 ; perimeter
G1 X72.009 Y95.020 E0.01294 ; perimeter
G1 X71.614 Y95.141 E0.01294 ; perimeter
G1 X71.206 Y95.203 E0.01294 ; perimeter
G1 X70.794 Y95.203 E0.01294 ; perimeter
G1 X70.386 Y95.141 E0.01294 ; perimeter
G1 X69.991 Y95.020 E0.01294 ; perimeter
G1 X69.620 Y94.841 E0.01294 ; perimeter
G1 X69.279 Y94.608 E0.01294 ; perimeter
G1 X68.976 Y94.328 E0.01294 ; perimeter
G1 X68.719 Y94.005 E0.01294 ; perimeter
G1 X68.513 Y93.648 E0.01294 ; perimeter
G1 X68.362 Y93.264 E0.01294 ; perimeter
G1 X68.270 Y92.861 E0.01294 ; perimeter
G1 X68.239 Y92.450 E0.01294 ; perimeter
G1 X68.270 Y92.039 E0.01294 ; perimeter
G1 X68.362 Y91.636 E0.01294 ; perimeter
G1 X68.513 Y91.252 E0.01294 ; perimeter
G1 X68.719 Y90.895 E0.01294 ; perimeter
G1 X68.976 Y90.572 E0.01294 ; perimeter
G1 X69.279 Y90.292 E0.01294 ; perimeter
G1 X69.620 Y90.059 E0.01294 ; perimeter
G1 X69.991 Y89.880 E0.01294 ; perimeter
G1 X70.376 Y89.762 E0.01263 ; perimeter
G1 X70.793 Y89.697 E0.01323 ; perimeter
G1 X71.206 Y89.697 E0.01295 ; perimeter
G1 X71.524 Y89.745 E0.01006 ; perimeter
G1 X71.853 Y89.458 F10800.000 ; move inwards before travel
G1 F8640
G1 X72.009 Y89.880 E-0.11626 ; wipe and retract
G1 F8640
G1 X72.380 Y90.059 E-0.09527 ; wipe and retract
G1 F8640
G1 X72.721 Y90.292 E-0.09527 ; wipe and retract
G1 F8640
G1 X73.024 Y90.572 E-0.09527 ; wipe and retract
G1 F8640
G1 X73.275 Y90.887 E-0.09298 ; wipe and retract
G1 F8640
G1 X73.487 Y91.252 E-0.09745 ; wipe and retract
G1 F8640
G1 X73.638 Y91.636 E-0.09536 ; wipe and retract
G1 F8640
G1 X73.707 Y91.941 E-0.07214 ; wipe and retract
G1 E-0.04000 F2100.00000 ; retract
G1 Z0.800 F10800.000 ; lift Z
G1 X71.537 Y78.087 F10800.000 ; move to first perimeter point
G1 Z0.200 F10800.000 ; restore layer Z
G1 E0.80000 F2100.00000 ; unretract
G1 F1200
G1 X68.463 Y78.087 E0.09639 ; perimeter
G1 X68.463 Y71.913 E0.19359 ; perimeter
G1 X71.537 Y71.913 E0.09639 ; perimeter
G1 X71.537 Y78.027 E0.19171 ; perimeter
G1 X71.160 Y77.710 F10800.000 ; move to first perimeter point
G1 F1200
G1 X68.840 Y77.710 E0.07274 ; perimeter
G1 X68.840 Y72.290 E0.16994 ; perimeter
G1 X71.160 Y72.290 E0.07274 ; perimeter
G1 X71.160 Y77.650 E0.16806 ; perimeter
G1 X71.214 Y78.106 F10800.000 ; move inwards before travel
G1 F8640
G1 X68.840 Y77.710 E-0.53587 ; wipe and retract
G1 F8640
G1 X68.840 Y76.739 E-0.22413 ; wipe and retract
G1 E-0.04000 F2100.00000 ; retract
G1 Z0.800 F10800.000 ; lift Z
G1 X68.463 Y131.913 F10800.000 ; move to first perimeter point
G1 Z0.200 F10800.000 ; restore layer Z
G1 E0.80000 F2100.00000 ; unretract
G1 F1200
G1 X71.537 Y131.913 E0.09639 ; perimeter
G1 X71.537 Y138.087 E0.19359 ; perimeter
G1 X68.463 Y138.087 E0.09639 ; perimeter
G1 X68.463 Y131.973 E0.19171 ; perimeter
G1 X68.840 Y132.290 F10800.000 ; move to first perimeter point
G1 F1200
G1 X71.160 Y132.290 E0.07274 ; perimeter
G1 X71.160 Y137.710 E0.16994 ; perimeter
G1 X68.840 Y137.710 E0.07274 ; perimeter
G1 X68.840 Y132.350 E0.16806 ; perimeter
G1 X68.786 Y131.894 F10800.000 ; move inwards before travel
G1 F8640
G1 X71.160 Y132.290 E-0.53587 ; wipe and retract
G1 F8640
G1 X71.160 Y133.261 E-0.22413 ; wipe and retract
G1 E-0.04000 F2100.00000 ; retract
G1 Z0.800 F10800.000 ; lift Z
G1 X178.463 Y131.913 F10800.000 ; move to first perimeter point
G1 Z0.200 F10800.000 ; restore layer Z
G1 E0.80000 F2100.00000 ; unretract
G1 F1200
G1 X181.537 Y131.913 E0.09639 ; perimeter
G1 X181.537 Y138.087 E0.19359 ; perimeter
G1 X178.463 Y138.087 E0.09639 ; perimeter
G1 X178.463 Y131.973 E0.19171 ; perimeter
G1 X178.840 Y132.290 F10800.000 ; move to first perimeter point
G1 F1200
G1 X181.160 Y132.290 E0.07274 ; perimeter
G1 X181.160 Y137.710 E0.16994 ; perimeter
G1 X178.840 Y137.710 E0.07274 ; perimeter
G1 X178.840 Y132.350 E0.16806 ; perimeter
G1 X178.786 Y131.894 F10800.000 ; move inwards before travel
G1 F8640
G1 X181.160 Y132.290 E-0.53587 ; wipe and retract
G1 F8640
G1 X181.160 Y133.261 E-0.22412 ; wipe and retract
G1 E-0.04000 F2100.00000 ; retract
G1 Z0.800 F10800.000 ; lift Z
G1 X178.463 Y71.913 F10800.000 ; move to first perimeter point
G1 Z0.200 F10800.000 ; restore layer Z
G1 E0.80000 F2100.00000 ; unretract
G1 F1200
G1 X181.537 Y71.913 E0.09639 ; perimeter
G1 X181.537 Y78.087 E0.19359 ; perimeter
G1 X178.463 Y78.087 E0.09639 ; perimeter
G1 X178.463 Y71.973 E0.19171 ; perimeter
G1 X178.840 Y72.290 F10800.000 ; move to first perimeter point
G1 F1200
G1 X181.160 Y72.290 E0.07274 ; perimeter
G1 X181.160 Y77.710 E0.16994 ; perimeter
G1 X178.840 Y77.710 E0.07274 ; perimeter
G1 X178.840 Y72.350 E0.16806 ; perimeter
G1 X178.786 Y71.894 F10800.000 ; move inwards before travel
G1 F8640
G1 X181.160 Y72.290 E-0.53587 ; wipe and retract
G1 F8640
G1 X181.160 Y73.261 E-0.22412 ; wipe and retract
G1 E-0.04000 F2100.00000 ; retract
G1 Z0.800 F10800.000 ; lift Z
G1 X184.413 Y65.587 F10800.000 ; move to first perimeter point
G1 Z0.200 F10800.000 ; restore layer Z
G1 E0.80000 F2100.00000 ; unretract
G1 F1200
G1 X184.413 Y144.413 E2.47153 ; perimeter
G1 X65.587 Y144.413 E3.72570 ; perimeter
G1 X65.587 Y65.587 E2.47153 ; perimeter
G1 X184.353 Y65.587 E3.72382 ; perimeter
G1 X184.790 Y65.210 F10800.000 ; move to first perimeter point
G1 F1200
G1 X184.790 Y144.790 E2.49518 ; perimeter
G1 X65.210 Y144.790 E3.74935 ; perimeter
G1 X65.210 Y65.210 E2.49518 ; perimeter
G1 X184.730 Y65.210 E3.74747 ; perimeter
G1 X184.661 Y65.589 F10800.000 ; move inwards before travel
G1 F8640
G1 X184.732 Y68.501 E-0.76000 ; wipe and retract
G1 E-0.04000 F2100.00000 ; retract
G1 Z0.800 F10800.000 ; lift Z
